;FLAVOR:Marlin
;TIME:932
;Filament used: 0.564324m
;Layer height: 0.2
;MINX:19
;MINY:19
;MINZ:0.2
;MAXX:341
;MAXY:341
;MAXZ:0.2
;Generated with Creality Slicer 4.8.2-172
M140 S60
M105
M190 S60
M104 S205
M105
M109 S205
M82 ;absolute extrusion mode

G28 ;Home

G92 E0 ;Reset Extruder
G1 Z2.0 F3000 ;Move Z Axis up
G1 X10.1 Y20 Z0.28 F5000.0 ;Move to start position
G1 X10.1 Y200.0 Z0.28 F1500.0 E15 ;Draw the first line
G1 X10.4 Y200.0 Z0.28 F5000.0 ;Move to side a little
G1 X10.4 Y20 Z0.28 F1500.0 E30 ;Draw the second line
G92 E0 ;Reset Extruder
G1 Z2.0 F3000 ;Move Z Axis up

G92 E0
G92 E0
G1 F3600 E-5
;LAYER_COUNT:1
;LAYER:0
M107
G0 F6000 X156.206 Y156.036 Z0.2
;TYPE:SKIRT
G1 F3600 E0
G1 F1200 X156.879 Y155.435 E0.03001
G1 X157.603 Y154.895 E0.06005
G1 X158.372 Y154.421 E0.0901
G1 X159.179 Y154.017 E0.12011
G1 X160.02 Y153.686 E0.15017
G1 X160.886 Y153.431 E0.1802
G1 X161.771 Y153.253 E0.21022
G1 X162.669 Y153.155 E0.24027
G1 X163.333 Y153.133 E0.26237
G1 X196.667 Y153.133 E1.37106
G1 X197.569 Y153.173 E1.40109
G1 X198.464 Y153.293 E1.43112
G1 X199.345 Y153.491 E1.46116
G1 X200.205 Y153.766 E1.49119
G1 X201.038 Y154.117 E1.52125
G1 X201.836 Y154.54 E1.55129
G1 X202.593 Y155.031 E1.5813
G1 X203.304 Y155.588 E1.61134
G1 X203.964 Y156.206 E1.64142
G1 X204.565 Y156.879 E1.67143
G1 X205.105 Y157.603 E1.70147
G1 X205.579 Y158.372 E1.73151
G1 X205.983 Y159.179 E1.76153
G1 X206.314 Y160.02 E1.79159
G1 X206.569 Y160.886 E1.82161
G1 X206.747 Y161.771 E1.85164
G1 X206.845 Y162.669 E1.88168
G1 X206.867 Y163.333 E1.90378
G1 X206.867 Y196.667 E3.01247
G1 X206.827 Y197.569 E3.0425
G1 X206.707 Y198.464 E3.07254
G1 X206.509 Y199.345 E3.10257
G1 X206.234 Y200.205 E3.1326
G1 X205.883 Y201.038 E3.16267
G1 X205.46 Y201.836 E3.19271
G1 X204.969 Y202.593 E3.22272
G1 X204.412 Y203.304 E3.25276
G1 X203.794 Y203.964 E3.28283
G1 X203.121 Y204.565 E3.31284
G1 X202.397 Y205.105 E3.34288
G1 X201.628 Y205.579 E3.37293
G1 X200.821 Y205.983 E3.40294
G1 X199.98 Y206.314 E3.433
G1 X199.114 Y206.569 E3.46303
G1 X198.229 Y206.747 E3.49305
G1 X197.331 Y206.845 E3.5231
G1 X196.667 Y206.867 E3.5452
G1 X163.333 Y206.867 E4.65389
G1 X162.431 Y206.827 E4.68392
G1 X161.536 Y206.707 E4.71395
G1 X160.655 Y206.509 E4.74399
G1 X159.795 Y206.234 E4.77402
G1 X158.962 Y205.883 E4.80408
G1 X158.164 Y205.46 E4.83412
G1 X157.407 Y204.969 E4.86413
G1 X156.696 Y204.412 E4.89417
G1 X156.036 Y203.794 E4.92425
G1 X155.435 Y203.121 E4.95426
G1 X154.895 Y202.397 E4.9843
G1 X154.421 Y201.628 E5.01434
G1 X154.017 Y200.821 E5.04436
G1 X153.686 Y199.98 E5.07442
G1 X153.431 Y199.114 E5.10445
G1 X153.253 Y198.229 E5.13447
G1 X153.155 Y197.331 E5.16452
G1 X153.133 Y196.667 E5.18661
G1 X153.133 Y163.333 E6.29531
G1 X153.173 Y162.431 E6.32534
G1 X153.293 Y161.536 E6.35537
G1 X153.491 Y160.655 E6.3854
G1 X153.766 Y159.795 E6.41543
G1 X154.117 Y158.962 E6.4455
G1 X154.54 Y158.164 E6.47554
G1 X155.031 Y157.407 E6.50555
G1 X155.588 Y156.696 E6.53559
G1 X156.206 Y156.036 E6.56566
G1 F3600 E1.56566
G0 F6000 X69.259 Y288.364
G1 F3600 E6.56566
G1 F1200 X69.97 Y288.921 E6.5957
G1 X70.629 Y289.538 E6.62573
G1 X71.231 Y290.212 E6.65579
G1 X71.771 Y290.936 E6.68583
G1 X72.245 Y291.704 E6.71584
G1 X72.649 Y292.512 E6.74589
G1 X72.98 Y293.352 E6.77592
G1 X73.235 Y294.219 E6.80598
G1 X73.413 Y295.104 E6.836
G1 X73.511 Y296.002 E6.86605
G1 X73.533 Y296.666 E6.88814
G1 X73.532 Y329.404 E7.97701
G1 X73.522 Y330.131 E8.0012
G1 X73.47 Y331.033 E8.03125
G1 X73.338 Y331.926 E8.06127
G1 X73.127 Y332.805 E8.09134
G1 X72.84 Y333.661 E8.12136
G1 X72.478 Y334.488 E8.15139
G1 X72.044 Y335.28 E8.18143
G1 X71.542 Y336.031 E8.21147
G1 X70.976 Y336.734 E8.24149
G1 X70.349 Y337.385 E8.27155
G1 X69.668 Y337.977 E8.30157
G1 X68.937 Y338.507 E8.3316
G1 X68.161 Y338.97 E8.36165
G1 X67.348 Y339.363 E8.39169
G1 X66.503 Y339.683 E8.42174
G1 X65.634 Y339.926 E8.45175
G1 X64.746 Y340.091 E8.48179
G1 X63.61 Y340.187 E8.51971
G1 X63.29 Y340.196 E8.53036
G1 X63.003 Y340.2 E8.5399
G1 X30.575 Y340.199 E9.61846
G1 X29.877 Y340.19 E9.64168
G1 X28.976 Y340.139 E9.6717
G1 X28.082 Y340.007 E9.70175
G1 X27.204 Y339.798 E9.73177
G1 X26.347 Y339.511 E9.76183
G1 X25.52 Y339.15 E9.79184
G1 X24.727 Y338.717 E9.82189
G1 X23.976 Y338.216 E9.85192
G1 X23.272 Y337.65 E9.88196
G1 X22.621 Y337.024 E9.912
G1 X22.028 Y336.343 E9.94204
G1 X21.498 Y335.612 E9.97207
G1 X21.034 Y334.837 E10.00211
G1 X20.64 Y334.024 E10.03216
G1 X20.32 Y333.18 E10.06218
G1 X20.076 Y332.31 E10.09224
G1 X19.91 Y331.422 E10.12228
G1 X19.813 Y330.267 E10.16083
G1 X19.804 Y329.934 E10.17191
G1 X19.8 Y329.658 E10.18109
G1 X19.801 Y297.203 E11.26055
G1 X19.81 Y296.538 E11.28267
G1 X19.862 Y295.636 E11.31272
G1 X19.994 Y294.743 E11.34274
G1 X20.204 Y293.865 E11.37277
G1 X20.491 Y293.008 E11.40283
G1 X20.853 Y292.181 E11.43286
G1 X21.286 Y291.389 E11.46288
G1 X21.788 Y290.638 E11.49292
G1 X22.355 Y289.934 E11.52299
G1 X22.981 Y289.284 E11.553
G1 X23.662 Y288.691 E11.58304
G1 X24.394 Y288.161 E11.6131
G1 X25.169 Y287.698 E11.64312
G1 X25.982 Y287.305 E11.67316
G1 X26.827 Y286.985 E11.70321
G1 X27.696 Y286.742 E11.73322
G1 X28.584 Y286.576 E11.76327
G1 X29.723 Y286.48 E11.80128
G1 X30.044 Y286.471 E11.81197
G1 X30.33 Y286.467 E11.82148
G1 X63.333 Y286.466 E12.91916
G1 X64.235 Y286.506 E12.94919
G1 X65.13 Y286.626 E12.97923
G1 X66.011 Y286.824 E13.00926
G1 X66.871 Y287.099 E13.03929
G1 X67.704 Y287.45 E13.06936
G1 X68.502 Y287.873 E13.0994
G1 X69.259 Y288.364 E13.12941
G1 F3600 E8.12941
G0 F6000 X289.538 Y289.371
G1 F3600 E13.12941
G1 F1200 X290.212 Y288.769 E13.15946
G1 X290.936 Y288.229 E13.1895
G1 X291.704 Y287.755 E13.21952
G1 X292.512 Y287.351 E13.24957
G1 X293.352 Y287.02 E13.2796
G1 X294.219 Y286.765 E13.30965
G1 X295.104 Y286.587 E13.33968
G1 X296.002 Y286.489 E13.36972
G1 X296.666 Y286.467 E13.39182
G1 X329.293 Y286.467 E14.477
G1 X330.137 Y286.478 E14.50507
G1 X331.039 Y286.531 E14.53513
G1 X331.932 Y286.663 E14.56515
G1 X332.81 Y286.874 E14.59518
G1 X333.666 Y287.162 E14.62522
G1 X334.493 Y287.524 E14.65525
G1 X335.285 Y287.959 E14.6853
G1 X336.036 Y288.461 E14.71535
G1 X336.739 Y289.028 E14.74539
G1 X337.389 Y289.655 E14.77542
G1 X337.981 Y290.337 E14.80546
G1 X338.511 Y291.068 E14.83549
G1 X338.973 Y291.844 E14.86553
G1 X339.366 Y292.657 E14.89556
G1 X339.684 Y293.502 E14.92559
G1 X339.927 Y294.372 E14.95564
G1 X340.092 Y295.26 E14.98568
G1 X340.187 Y296.39 E15.02339
G1 X340.196 Y296.71 E15.03404
G1 X340.2 Y296.997 E15.04359
G1 X340.199 Y329.39 E16.12098
G1 X340.19 Y330.117 E16.14517
G1 X340.139 Y331.019 E16.17521
G1 X340.008 Y331.913 E16.20527
G1 X339.799 Y332.791 E16.23528
G1 X339.513 Y333.648 E16.26533
G1 X339.152 Y334.476 E16.29538
G1 X338.72 Y335.268 E16.32538
G1 X338.219 Y336.02 E16.35544
G1 X337.653 Y336.724 E16.38548
G1 X337.028 Y337.375 E16.4155
G1 X336.347 Y337.969 E16.44555
G1 X335.616 Y338.5 E16.4756
G1 X334.842 Y338.964 E16.50562
G1 X334.029 Y339.358 E16.53567
G1 X333.185 Y339.678 E16.56569
G1 X332.315 Y339.923 E16.59575
G1 X331.428 Y340.089 E16.62576
G1 X330.277 Y340.187 E16.66419
G1 X329.956 Y340.196 E16.67487
G1 X329.67 Y340.2 E16.68438
G1 X297.242 Y340.199 E17.76294
G1 X296.544 Y340.19 E17.78616
G1 X295.643 Y340.139 E17.81617
G1 X294.749 Y340.007 E17.84623
G1 X293.871 Y339.798 E17.87625
G1 X293.014 Y339.511 E17.90631
G1 X292.187 Y339.15 E17.93632
G1 X291.394 Y338.717 E17.96637
G1 X290.643 Y338.216 E17.9964
G1 X289.939 Y337.65 E18.02644
G1 X289.288 Y337.024 E18.05648
G1 X288.695 Y336.343 E18.08651
G1 X288.165 Y335.612 E18.11655
G1 X287.701 Y334.837 E18.14659
G1 X287.307 Y334.024 E18.17664
G1 X286.987 Y333.18 E18.20666
G1 X286.743 Y332.31 E18.23671
G1 X286.577 Y331.422 E18.26676
G1 X286.48 Y330.267 E18.30531
G1 X286.471 Y329.934 E18.31639
G1 X286.467 Y329.658 E18.32557
G1 X286.466 Y296.667 E19.42285
G1 X286.506 Y295.765 E19.45288
G1 X286.626 Y294.87 E19.48292
G1 X286.824 Y293.989 E19.51295
G1 X287.099 Y293.129 E19.54298
G1 X287.45 Y292.296 E19.57305
G1 X287.873 Y291.498 E19.60309
G1 X288.364 Y290.741 E19.6331
G1 X288.921 Y290.03 E19.66314
G1 X289.538 Y289.371 E19.69316
G1 F3600 E14.69316
G0 F6000 X197.32 Y162.68
G0 X29.347 Y63.986
G0 X22.198 Y22.264
G1 F3600 E19.69316
G1 F1200 X22.886 Y21.627 E19.72435
G1 X23.626 Y21.051 E19.75554
G1 X24.412 Y20.539 E19.78674
G1 X25.239 Y20.097 E19.81793
G1 X26.101 Y19.727 E19.84913
G1 X26.991 Y19.431 E19.88032
G1 X27.903 Y19.213 E19.91151
G1 X28.83 Y19.072 E19.9427
G1 X29.701 Y19.013 E19.97173
G1 X30.022 Y19.004 E19.98241
G1 X30.33 Y19 E19.99266
G1 X62.626 Y19 E21.06683
G1 X63.482 Y19.011 E21.0953
G1 X64.418 Y19.065 E21.12648
G1 X65.346 Y19.197 E21.15766
G1 X66.26 Y19.409 E21.18887
G1 X67.152 Y19.698 E21.22005
G1 X68.017 Y20.061 E21.25125
G1 X68.847 Y20.497 E21.28244
G1 X69.638 Y21.002 E21.31365
G1 X70.382 Y21.573 E21.34484
G1 X71.075 Y22.205 E21.37604
G1 X71.712 Y22.893 E21.40722
G1 X72.287 Y23.634 E21.43842
G1 X72.798 Y24.42 E21.4696
G1 X73.24 Y25.248 E21.50082
G1 X73.609 Y26.11 E21.532
G1 X73.904 Y27 E21.56319
G1 X74.122 Y27.912 E21.59438
G1 X74.262 Y28.84 E21.62559
G1 X74.32 Y29.701 E21.65429
G1 X74.329 Y30.021 E21.66494
G1 X74.333 Y30.33 E21.67522
G1 X74.334 Y63.333 E22.7729
G1 X74.294 Y64.27 E22.8041
G1 X74.174 Y65.2 E22.83529
G1 X73.976 Y66.117 E22.86649
G1 X73.7 Y67.013 E22.89767
G1 X73.349 Y67.883 E22.92887
G1 X72.925 Y68.719 E22.96005
G1 X72.431 Y69.517 E22.99127
G1 X71.872 Y70.269 E23.02243
G1 X71.25 Y70.971 E23.05363
G1 X70.57 Y71.618 E23.08484
G1 X69.838 Y72.204 E23.11603
G1 X69.059 Y72.726 E23.14722
G1 X68.238 Y73.179 E23.17841
G1 X67.382 Y73.561 E23.20959
G1 X66.496 Y73.869 E23.24078
G1 X65.587 Y74.1 E23.27198
G1 X64.661 Y74.253 E23.30319
G1 X63.334 Y74.333 E23.34741
G1 X30.549 Y74.332 E24.43784
G1 X29.851 Y74.322 E24.46106
G1 X28.915 Y74.268 E24.49225
G1 X27.987 Y74.136 E24.52342
G1 X27.073 Y73.924 E24.55463
G1 X26.181 Y73.635 E24.58581
G1 X25.316 Y73.272 E24.61702
G1 X24.486 Y72.836 E24.6482
G1 X23.695 Y72.331 E24.67941
G1 X22.951 Y71.76 E24.7106
G1 X22.258 Y71.128 E24.7418
G1 X21.621 Y70.44 E24.77298
G1 X21.046 Y69.699 E24.80418
G1 X20.535 Y68.913 E24.83536
G1 X20.093 Y68.085 E24.86658
G1 X19.724 Y67.223 E24.89777
G1 X19.429 Y66.333 E24.92895
G1 X19.211 Y65.421 E24.96014
G1 X19.071 Y64.493 E24.99135
G1 X19.013 Y63.621 E25.02042
G1 X19.004 Y63.289 E25.03147
G1 X19 Y62.991 E25.04138
G1 X19.001 Y30.525 E26.1212
G1 X19.01 Y29.86 E26.14332
G1 X19.063 Y28.924 E26.1745
G1 X19.195 Y27.995 E26.20571
G1 X19.406 Y27.081 E26.23691
G1 X19.694 Y26.189 E26.26809
G1 X20.057 Y25.324 E26.29929
G1 X20.492 Y24.493 E26.33049
G1 X20.996 Y23.703 E26.36165
G1 X21.566 Y22.958 E26.39285
G1 X22.198 Y22.264 E26.42407
G0 F6000 X22.589 Y22.439
G1 F1200 X23.274 Y21.823 E26.45471
G1 X24.01 Y21.27 E26.48533
G1 X24.791 Y20.782 E26.51596
G1 X25.611 Y20.364 E26.54658
G1 X26.465 Y20.019 E26.57721
G1 X27.345 Y19.749 E26.60783
G1 X28.245 Y19.557 E26.63843
G1 X29.159 Y19.443 E26.66907
G1 X29.712 Y19.413 E26.68749
G1 X30.033 Y19.404 E26.69817
G1 X30.33 Y19.4 E26.70805
G1 X62.626 Y19.4 E27.78222
G1 X63.476 Y19.411 E27.81049
G1 X64.395 Y19.464 E27.84111
G1 X65.306 Y19.597 E27.87173
G1 X66.202 Y19.808 E27.90235
G1 X67.076 Y20.096 E27.93295
G1 X67.923 Y20.459 E27.9636
G1 X68.734 Y20.894 E27.99421
G1 X69.504 Y21.398 E28.02482
G1 X70.228 Y21.967 E28.05545
G1 X70.9 Y22.597 E28.08608
G1 X71.515 Y23.282 E28.1167
G1 X72.068 Y24.018 E28.14732
G1 X72.555 Y24.799 E28.17793
G1 X72.972 Y25.62 E28.20856
G1 X73.317 Y26.474 E28.2392
G1 X73.586 Y27.354 E28.2698
G1 X73.778 Y28.255 E28.30044
G1 X73.891 Y29.168 E28.33104
G1 X73.92 Y29.712 E28.34916
G1 X73.929 Y30.032 E28.35981
G1 X73.933 Y30.33 E28.36972
G1 X73.934 Y63.333 E29.4674
G1 X73.894 Y64.252 E29.498
G1 X73.774 Y65.165 E29.52863
G1 X73.576 Y66.064 E29.55924
G1 X73.3 Y66.943 E29.58989
G1 X72.95 Y67.794 E29.62049
G1 X72.526 Y68.611 E29.65111
G1 X72.034 Y69.389 E29.68172
G1 X71.475 Y70.121 E29.71236
G1 X70.855 Y70.802 E29.74299
G1 X70.179 Y71.427 E29.77361
G1 X69.451 Y71.99 E29.80422
G1 X68.677 Y72.488 E29.83483
G1 X67.862 Y72.917 E29.86546
G1 X67.013 Y73.274 E29.89609
G1 X66.137 Y73.556 E29.9267
G1 X65.239 Y73.76 E29.95733
G1 X64.327 Y73.886 E29.98795
G1 X63.334 Y73.933 E30.02102
G1 X30.555 Y73.932 E31.11125
G1 X29.857 Y73.922 E31.13447
G1 X28.938 Y73.869 E31.16509
G1 X28.027 Y73.736 E31.19571
G1 X27.131 Y73.525 E31.22632
G1 X26.257 Y73.237 E31.25693
G1 X25.41 Y72.874 E31.28758
G1 X24.599 Y72.439 E31.31819
G1 X23.829 Y71.935 E31.3488
G1 X23.105 Y71.366 E31.37942
G1 X22.433 Y70.736 E31.41006
G1 X21.818 Y70.051 E31.44068
G1 X21.265 Y69.315 E31.4713
G1 X20.778 Y68.534 E31.50191
G1 X20.361 Y67.713 E31.53254
G1 X20.016 Y66.859 E31.56317
G1 X19.747 Y65.979 E31.59378
G1 X19.555 Y65.078 E31.62442
G1 X19.442 Y64.165 E31.65502
G1 X19.413 Y63.61 E31.6735
G1 X19.404 Y63.278 E31.68455
G1 X19.4 Y62.991 E31.6941
G1 X19.401 Y30.531 E32.77372
G1 X19.41 Y29.866 E32.79584
G1 X19.462 Y28.946 E32.82649
G1 X19.594 Y28.035 E32.8571
G1 X19.805 Y27.139 E32.88772
G1 X20.092 Y26.264 E32.91835
G1 X20.455 Y25.418 E32.94897
G1 X20.889 Y24.606 E32.97959
G1 X21.392 Y23.835 E33.01021
G1 X21.961 Y23.111 E33.04084
G1 X22.589 Y22.439 E33.07143
G0 F6000 X22.981 Y22.617
G1 F1200 X23.662 Y22.024 E33.10146
G1 X24.394 Y21.494 E33.13152
G1 X25.169 Y21.031 E33.16154
G1 X25.982 Y20.638 E33.19158
G1 X26.827 Y20.318 E33.22163
G1 X27.696 Y20.075 E33.25164
G1 X28.584 Y19.909 E33.28169
G1 X29.723 Y19.813 E33.31971
G1 X30.044 Y19.804 E33.33039
G1 X30.33 Y19.8 E33.3399
G1 X62.626 Y19.8 E34.41407
G1 X63.47 Y19.811 E34.44214
G1 X64.372 Y19.864 E34.4722
G1 X65.265 Y19.996 E34.50222
G1 X66.143 Y20.207 E34.53226
G1 X66.999 Y20.495 E34.56229
G1 X67.826 Y20.857 E34.59232
G1 X68.618 Y21.292 E34.62237
G1 X69.369 Y21.794 E34.65242
G1 X70.072 Y22.361 E34.68246
G1 X70.722 Y22.988 E34.7125
G1 X71.314 Y23.67 E34.74253
G1 X71.844 Y24.401 E34.77256
G1 X72.306 Y25.177 E34.8026
G1 X72.699 Y25.99 E34.83264
G1 X73.017 Y26.835 E34.86267
G1 X73.26 Y27.705 E34.89271
G1 X73.425 Y28.593 E34.92275
G1 X73.52 Y29.723 E34.96047
G1 X73.529 Y30.043 E34.97111
G1 X73.533 Y30.33 E34.98066
G1 X73.534 Y63.333 E36.07834
G1 X73.494 Y64.235 E36.10837
G1 X73.374 Y65.13 E36.13841
G1 X73.176 Y66.011 E36.16844
G1 X72.901 Y66.871 E36.19847
G1 X72.55 Y67.704 E36.22854
G1 X72.127 Y68.502 E36.25858
G1 X71.636 Y69.259 E36.28859
G1 X71.079 Y69.97 E36.31863
G1 X70.462 Y70.629 E36.34865
G1 X69.788 Y71.231 E36.37871
G1 X69.064 Y71.771 E36.40875
G1 X68.296 Y72.245 E36.43877
G1 X67.488 Y72.649 E36.46882
G1 X66.648 Y72.98 E36.49884
G1 X65.781 Y73.235 E36.5289
G1 X64.896 Y73.413 E36.55893
G1 X63.998 Y73.511 E36.58897
G1 X63.334 Y73.533 E36.61107
G1 X30.561 Y73.532 E37.7011
G1 X29.863 Y73.522 E37.72432
G1 X28.961 Y73.469 E37.75437
G1 X28.068 Y73.337 E37.7844
G1 X27.19 Y73.126 E37.81443
G1 X26.334 Y72.838 E37.84447
G1 X25.507 Y72.476 E37.8745
G1 X24.715 Y72.041 E37.90455
G1 X23.964 Y71.539 E37.93459
G1 X23.261 Y70.972 E37.96463
G1 X22.611 Y70.345 E37.99467
G1 X22.019 Y69.663 E38.02471
G1 X21.489 Y68.932 E38.05474
G1 X21.027 Y68.156 E38.08478
G1 X20.634 Y67.343 E38.11481
G1 X20.316 Y66.498 E38.14484
G1 X20.073 Y65.628 E38.17489
G1 X19.908 Y64.74 E38.20493
G1 X19.813 Y63.599 E38.24301
G1 X19.804 Y63.267 E38.25405
G1 X19.8 Y62.991 E38.26323
G1 X19.801 Y30.536 E39.34269
G1 X19.81 Y29.871 E39.36481
G1 X19.862 Y28.969 E39.39486
G1 X19.994 Y28.076 E39.42489
G1 X20.204 Y27.198 E39.45491
G1 X20.491 Y26.341 E39.48497
G1 X20.853 Y25.514 E39.515
G1 X21.286 Y24.722 E39.54502
G1 X21.788 Y23.971 E39.57506
G1 X22.355 Y23.267 E39.60513
G1 X22.981 Y22.617 E39.63514
G1 F3600 E34.63514
G0 F6000 X63.986 Y29.347
G0 X155.417 Y155.695
G1 F3600 E39.63514
G1 F1200 X156.097 Y155.048 E39.66636
G1 X156.829 Y154.462 E39.69755
G1 X157.608 Y153.94 E39.72874
G1 X158.429 Y153.487 E39.75993
G1 X159.286 Y153.105 E39.79113
G1 X160.172 Y152.797 E39.82233
G1 X161.081 Y152.566 E39.85353
G1 X162.006 Y152.413 E39.88471
G1 X163.333 Y152.333 E39.92893
G1 X196.667 Y152.333 E41.03762
G1 X197.604 Y152.373 E41.06881
G1 X198.534 Y152.493 E41.1
G1 X199.451 Y152.691 E41.1312
G1 X200.347 Y152.967 E41.16239
G1 X201.217 Y153.318 E41.19359
G1 X202.053 Y153.742 E41.22477
G1 X202.851 Y154.236 E41.25598
G1 X203.603 Y154.796 E41.28717
