;FLAVOR:Marlin
;TIME:11534
;Filament used: 9.11669m
;Layer height: 0.2
;MINX:102.402
;MINY:140.382
;MINZ:0.2
;MAXX:257.598
;MAXY:219.618
;MAXZ:19.6
;Generated with Creality Slicer 4.8.2-96
M140 S60
M105
M190 S60
M104 S200
M105
M109 S200
M82 ;absolute extrusion mode

G28 ;Home

G92 E0 ;Reset Extruder
G1 Z2.0 F3000 ;Move Z Axis up
G1 X10.1 Y20 Z0.28 F5000.0 ;Move to start position
G1 X10.1 Y200.0 Z0.28 F1500.0 E15 ;Draw the first line
G1 X10.4 Y200.0 Z0.28 F5000.0 ;Move to side a little
G1 X10.4 Y20 Z0.28 F1500.0 E30 ;Draw the second line
G92 E0 ;Reset Extruder
G1 Z2.0 F3000 ;Move Z Axis up

G92 E0
G92 E0
G1 F3600 E-5
;LAYER_COUNT:98
;LAYER:0
M107
G0 F6000 X128.925 Y143.819 Z0.2
;TYPE:SKIRT
G1 F3600 E0
G1 F1200 X129.246 Y143.534 E0.01428
G1 X129.973 Y142.942 E0.04546
G1 X130.704 Y142.441 E0.07494
G1 X130.873 Y142.335 E0.08157
G1 X131.688 Y141.871 E0.11276
G1 X132.301 Y141.58 E0.13533
G1 X132.691 Y141.409 E0.1495
G1 X133.565 Y141.069 E0.18069
G1 X134.481 Y140.801 E0.21243
G1 X134.664 Y140.756 E0.2187
G1 X135.584 Y140.571 E0.24991
G1 X136.196 Y140.493 E0.27043
G1 X136.686 Y140.444 E0.28681
G1 X137.622 Y140.39 E0.31799
G1 X138.264 Y140.382 E0.33935
G1 X224.991 Y140.382 E3.2239
G1 X225.847 Y140.393 E3.25237
G1 X226.466 Y140.419 E3.27298
G1 X227.839 Y140.516 E3.31876
G1 X230.381 Y140.662 E3.40344
G1 X232.872 Y140.734 E3.48633
G1 X235.396 Y140.736 E3.57028
G1 X237.919 Y140.666 E3.65423
G1 X240.481 Y140.523 E3.73957
G1 X241.758 Y140.424 E3.78217
G1 X242.299 Y140.395 E3.80019
G1 X242.619 Y140.386 E3.81084
G1 X242.928 Y140.382 E3.82112
G1 X244.037 Y140.383 E3.858
G1 X244.743 Y140.393 E3.88149
G1 X245.184 Y140.408 E3.89616
G1 X245.685 Y140.443 E3.91287
G1 X245.923 Y140.465 E3.92082
G1 X246.904 Y140.6 E3.95375
G1 X246.98 Y140.614 E3.95632
G1 X247.71 Y140.774 E3.98118
G1 X247.937 Y140.832 E3.98897
G1 X249.163 Y141.223 E4.03177
G1 X249.254 Y141.258 E4.03501
G1 X249.696 Y141.44 E4.05091
G1 X249.905 Y141.531 E4.05849
G1 X251.006 Y142.085 E4.09949
G1 X251.452 Y142.353 E4.1168
G1 X251.656 Y142.482 E4.12482
G1 X252.649 Y143.189 E4.16537
G1 X252.709 Y143.237 E4.16792
G1 X253.095 Y143.561 E4.18468
G1 X253.259 Y143.705 E4.19194
G1 X253.937 Y144.353 E4.22314
G1 X254.333 Y144.789 E4.24273
G1 X254.533 Y145.021 E4.25291
G1 X255.114 Y145.756 E4.28408
G1 X255.534 Y146.381 E4.30912
G1 X255.66 Y146.583 E4.31704
G1 X256.122 Y147.4 E4.34826
G1 X256.39 Y147.962 E4.36896
G1 X256.56 Y148.347 E4.38296
G1 X256.902 Y149.22 E4.41415
G1 X257.185 Y150.19 E4.44775
G1 X257.23 Y150.375 E4.45409
G1 X257.413 Y151.295 E4.48529
G1 X257.487 Y151.878 E4.50483
G1 X257.536 Y152.367 E4.52118
G1 X257.59 Y153.305 E4.55243
G1 X257.598 Y153.948 E4.57382
G1 X257.597 Y164.319 E4.91876
G1 X257.587 Y165.06 E4.9434
G1 X257.559 Y165.712 E4.96511
G1 X257.542 Y165.945 E4.97288
G1 X257.434 Y166.877 E5.00409
G1 X257.322 Y167.472 E5.02422
G1 X257.251 Y167.8 E5.03539
G1 X257.014 Y168.708 E5.0666
G1 X256.8 Y169.335 E5.08863
G1 X256.683 Y169.647 E5.09972
G1 X256.316 Y170.511 E5.13094
G1 X255.878 Y171.34 E5.16212
G1 X255.37 Y172.128 E5.19331
G1 X254.913 Y172.73 E5.21844
G1 X254.246 Y173.547 E5.25352
G1 X252.982 Y175.048 E5.31879
G1 X251.279 Y177.129 E5.40823
G1 X249.754 Y179.103 E5.49119
G1 X248.272 Y181.139 E5.57495
G1 X246.843 Y183.222 E5.65897
G1 X245.478 Y185.339 E5.74275
G1 X244.18 Y187.484 E5.82613
G1 X242.926 Y189.693 E5.91062
G1 X241.761 Y191.888 E5.99327
G1 X240.635 Y194.164 E6.07773
G1 X239.588 Y196.439 E6.16102
G1 X238.593 Y198.771 E6.24535
G1 X237.667 Y201.121 E6.32936
G1 X236.82 Y203.472 E6.41248
G1 X236.029 Y205.876 E6.49665
G1 X235.317 Y208.264 E6.57953
G1 X234.943 Y209.65 E6.62728
G1 X234.775 Y210.241 E6.64771
G1 X234.39 Y211.362 E6.68714
G1 X234.309 Y211.562 E6.69431
G1 X233.92 Y212.416 E6.72553
G1 X233.626 Y212.955 E6.74595
G1 X233.406 Y213.334 E6.76052
G1 X232.901 Y214.125 E6.79173
G1 X232.29 Y214.917 E6.825
G1 X232.169 Y215.06 E6.83123
G1 X231.533 Y215.75 E6.86245
G1 X231.086 Y216.171 E6.88287
G1 X230.767 Y216.455 E6.89707
G1 X230.041 Y217.048 E6.92825
G1 X229.278 Y217.57 E6.959
G1 X229.105 Y217.678 E6.96578
G1 X228.289 Y218.14 E6.99697
G1 X227.694 Y218.422 E7.01887
G1 X227.306 Y218.592 E7.03296
G1 X226.432 Y218.932 E7.06415
G1 X225.519 Y219.199 E7.09579
G1 X225.336 Y219.244 E7.10206
G1 X224.416 Y219.429 E7.13327
G1 X223.804 Y219.507 E7.15379
G1 X223.314 Y219.556 E7.17017
G1 X222.378 Y219.61 E7.20135
G1 X221.736 Y219.618 E7.22271
G1 X134.851 Y219.617 E10.11251
G1 X134.153 Y219.607 E10.13573
G1 X133.534 Y219.581 E10.15634
G1 X132.161 Y219.484 E10.20212
G1 X129.619 Y219.338 E10.28681
G1 X127.128 Y219.266 E10.36969
G1 X124.604 Y219.264 E10.45364
G1 X122.081 Y219.334 E10.53759
G1 X119.519 Y219.477 E10.62293
G1 X118.242 Y219.576 E10.66553
G1 X117.701 Y219.605 E10.68355
G1 X117.381 Y219.614 E10.6942
G1 X117.072 Y219.618 E10.70448
G1 X115.963 Y219.617 E10.74136
G1 X115.257 Y219.607 E10.76485
G1 X114.816 Y219.592 E10.77952
G1 X114.315 Y219.557 E10.79623
G1 X114.077 Y219.535 E10.80418
G1 X113.096 Y219.4 E10.83711
G1 X113.02 Y219.386 E10.83968
G1 X112.246 Y219.214 E10.86606
G1 X112.019 Y219.155 E10.87386
G1 X110.936 Y218.813 E10.91163
G1 X110.845 Y218.779 E10.91486
G1 X110.339 Y218.576 E10.93299
G1 X110.128 Y218.485 E10.94064
G1 X109.283 Y218.077 E10.97185
G1 X108.674 Y217.724 E10.99526
G1 X108.42 Y217.566 E11.00521
G1 X107.406 Y216.853 E11.04644
G1 X107.339 Y216.8 E11.04928
G1 X106.895 Y216.43 E11.0685
G1 X106.728 Y216.283 E11.0759
G1 X106.051 Y215.634 E11.10709
G1 X105.649 Y215.191 E11.12699
G1 X105.449 Y214.958 E11.1372
G1 X104.869 Y214.221 E11.1684
G1 X104.465 Y213.619 E11.19251
G1 X104.342 Y213.422 E11.20023
G1 X103.88 Y212.606 E11.23142
G1 X103.603 Y212.023 E11.25289
G1 X103.432 Y211.634 E11.26702
G1 X103.092 Y210.76 E11.29822
G1 X102.81 Y209.792 E11.33175
G1 X102.766 Y209.61 E11.33798
G1 X102.585 Y208.69 E11.36916
G1 X102.513 Y208.12 E11.38827
G1 X102.464 Y207.63 E11.40465
G1 X102.41 Y206.694 E11.43583
G1 X102.402 Y206.052 E11.45719
G1 X102.403 Y195.638 E11.80356
G1 X102.413 Y194.931 E11.82708
G1 X102.441 Y194.283 E11.84865
G1 X102.458 Y194.051 E11.85639
G1 X102.567 Y193.12 E11.88756
G1 X102.678 Y192.528 E11.9076
G1 X102.749 Y192.2 E11.91876
G1 X102.986 Y191.292 E11.94997
G1 X103.2 Y190.665 E11.97201
G1 X103.317 Y190.353 E11.98309
G1 X103.684 Y189.489 E12.01431
G1 X104.122 Y188.66 E12.04549
G1 X104.63 Y187.872 E12.07668
G1 X105.087 Y187.27 E12.10182
G1 X105.754 Y186.453 E12.1369
G1 X107.03 Y184.938 E12.20278
G1 X108.732 Y182.858 E12.29217
G1 X110.246 Y180.897 E12.37457
G1 X111.728 Y178.861 E12.45832
G1 X113.157 Y176.778 E12.54234
G1 X114.522 Y174.661 E12.62612
G1 X115.824 Y172.51 E12.70975
G1 X117.074 Y170.307 E12.79399
G1 X118.239 Y168.112 E12.87664
G1 X119.365 Y165.836 E12.9611
G1 X120.412 Y163.561 E13.0444
G1 X121.407 Y161.229 E13.12873
G1 X122.333 Y158.879 E13.21274
G1 X123.18 Y156.528 E13.29585
G1 X123.971 Y154.124 E13.38002
G1 X124.686 Y151.727 E13.46322
G1 X125.061 Y150.337 E13.5111
G1 X125.226 Y149.757 E13.53116
G1 X125.621 Y148.612 E13.57145
G1 X125.703 Y148.411 E13.57867
G1 X126.094 Y147.558 E13.60988
G1 X126.37 Y147.052 E13.62905
G1 X126.589 Y146.674 E13.64358
G1 X127.093 Y145.883 E13.67477
G1 X127.71 Y145.083 E13.70837
G1 X127.831 Y144.94 E13.7146
G1 X128.467 Y144.25 E13.74582
G1 X128.925 Y143.819 E13.76673
G0 F6000 X129.19 Y144.118
G1 F1200 X129.511 Y143.833 E13.78101
G1 X130.226 Y143.253 E13.81163
G1 X130.917 Y142.78 E13.83948
G1 X131.086 Y142.674 E13.84612
G1 X131.886 Y142.219 E13.87673
G1 X132.461 Y141.946 E13.8979
G1 X132.851 Y141.775 E13.91206
G1 X133.71 Y141.442 E13.94271
G1 X134.577 Y141.19 E13.97274
G1 X134.76 Y141.145 E13.979
G1 X135.663 Y140.964 E14.00964
G1 X136.236 Y140.891 E14.02885
G1 X136.726 Y140.842 E14.04523
G1 X137.627 Y140.79 E14.07524
G1 X138.264 Y140.782 E14.09643
G1 X224.991 Y140.782 E16.98098
G1 X225.841 Y140.793 E17.00926
G1 X226.438 Y140.818 E17.02913
G1 X227.79 Y140.914 E17.07421
G1 X230.347 Y141.06 E17.1594
G1 X232.895 Y141.134 E17.24418
G1 X235.407 Y141.136 E17.32773
G1 X237.952 Y141.066 E17.41241
G1 X240.489 Y140.924 E17.49692
G1 X241.789 Y140.823 E17.54029
G1 X242.31 Y140.795 E17.55764
G1 X242.63 Y140.786 E17.56829
G1 X242.928 Y140.782 E17.5782
G1 X244.031 Y140.783 E17.61489
G1 X244.737 Y140.793 E17.63837
G1 X245.165 Y140.807 E17.65262
G1 X245.649 Y140.841 E17.66875
G1 X245.887 Y140.863 E17.6767
G1 X246.831 Y140.993 E17.7084
G1 X246.907 Y141.007 E17.71097
G1 X247.611 Y141.162 E17.73494
G1 X247.838 Y141.22 E17.74274
G1 X249.019 Y141.597 E17.78397
G1 X249.11 Y141.632 E17.78721
G1 X249.537 Y141.806 E17.80255
G1 X249.746 Y141.897 E17.81013
G1 X250.807 Y142.432 E17.84965
G1 X251.238 Y142.691 E17.86637
G1 X251.442 Y142.82 E17.8744
G1 X252.399 Y143.502 E17.91349
G1 X252.459 Y143.55 E17.91604
G1 X252.831 Y143.862 E17.93219
G1 X252.995 Y144.006 E17.93945
G1 X253.66 Y144.643 E17.97008
G1 X254.03 Y145.05 E17.98837
G1 X254.23 Y145.282 E17.99856
G1 X254.8 Y146.005 E18.02918
G1 X255.195 Y146.593 E18.05274
G1 X255.321 Y146.795 E18.06066
G1 X255.774 Y147.597 E18.0913
G1 X256.024 Y148.123 E18.11067
G1 X256.194 Y148.508 E18.12467
G1 X256.529 Y149.366 E18.1553
G1 X256.797 Y150.285 E18.18714
G1 X256.842 Y150.47 E18.19347
G1 X257.02 Y151.373 E18.22408
G1 X257.089 Y151.918 E18.24236
G1 X257.138 Y152.407 E18.2587
G1 X257.19 Y153.311 E18.28882
G1 X257.198 Y153.948 E18.31001
G1 X257.197 Y164.314 E18.65478
G1 X257.187 Y165.055 E18.67943
G1 X257.16 Y165.683 E18.70034
G1 X257.143 Y165.916 E18.70811
G1 X257.036 Y166.831 E18.73875
G1 X256.931 Y167.388 E18.7576
G1 X256.86 Y167.716 E18.76876
G1 X256.626 Y168.606 E18.79937
G1 X256.425 Y169.195 E18.82007
G1 X256.308 Y169.507 E18.83115
G1 X255.948 Y170.354 E18.86176
G1 X255.515 Y171.167 E18.8924
G1 X255.014 Y171.939 E18.92301
G1 X254.603 Y172.477 E18.94553
G1 X253.94 Y173.29 E18.98042
G1 X252.609 Y174.871 E19.04915
G1 X250.989 Y176.851 E19.13424
G1 X249.418 Y178.886 E19.21975
G1 X247.947 Y180.907 E19.30289
G1 X246.509 Y183.001 E19.38738
G1 X245.143 Y185.121 E19.47126
G1 X243.823 Y187.301 E19.55602
G1 X242.591 Y189.472 E19.63905
G1 X241.392 Y191.73 E19.72408
G1 X240.278 Y193.983 E19.80767
G1 X239.22 Y196.28 E19.89179
G1 X238.23 Y198.604 E19.9758
G1 X237.283 Y201.005 E20.06165
G1 X236.447 Y203.328 E20.14376
G1 X235.652 Y205.742 E20.2283
G1 X234.928 Y208.169 E20.31253
G1 X234.558 Y209.54 E20.35976
G1 X234.39 Y210.131 E20.3802
G1 X234.019 Y211.212 E20.41821
G1 X233.938 Y211.412 E20.42539
G1 X233.555 Y212.25 E20.45603
G1 X233.28 Y212.754 E20.47513
G1 X233.06 Y213.133 E20.48971
G1 X232.564 Y213.909 E20.52034
G1 X231.985 Y214.659 E20.55185
G1 X231.864 Y214.802 E20.55808
G1 X231.239 Y215.478 E20.5887
G1 X230.82 Y215.872 E20.60783
G1 X230.501 Y216.156 E20.62204
G1 X229.788 Y216.738 E20.65265
G1 X229.066 Y217.231 E20.68173
G1 X228.893 Y217.339 E20.68851
G1 X228.092 Y217.792 E20.71912
G1 X227.534 Y218.056 E20.73965
G1 X227.146 Y218.226 E20.75374
G1 X226.287 Y218.558 E20.78437
G1 X225.423 Y218.81 E20.8143
G1 X225.24 Y218.855 E20.82057
G1 X224.337 Y219.036 E20.8512
G1 X223.764 Y219.109 E20.87041
G1 X223.274 Y219.158 E20.88679
G1 X222.373 Y219.21 E20.91681
G1 X221.736 Y219.218 E20.938
G1 X134.857 Y219.217 E23.8276
G1 X134.159 Y219.207 E23.85082
G1 X133.562 Y219.182 E23.8707
G1 X132.21 Y219.086 E23.91578
G1 X129.653 Y218.94 E24.00096
G1 X127.105 Y218.866 E24.08574
G1 X124.593 Y218.864 E24.16929
G1 X122.048 Y218.934 E24.25397
G1 X119.511 Y219.076 E24.33849
G1 X118.211 Y219.177 E24.38185
G1 X117.69 Y219.205 E24.39921
G1 X117.37 Y219.214 E24.40986
G1 X117.072 Y219.218 E24.41977
G1 X115.969 Y219.217 E24.45645
G1 X115.263 Y219.207 E24.47994
G1 X114.835 Y219.193 E24.49418
G1 X114.351 Y219.159 E24.51032
G1 X114.113 Y219.137 E24.51827
G1 X113.169 Y219.007 E24.54996
G1 X113.093 Y218.993 E24.55253
G1 X112.347 Y218.827 E24.57795
G1 X112.12 Y218.768 E24.58575
G1 X111.076 Y218.439 E24.62216
G1 X110.985 Y218.405 E24.62539
G1 X110.497 Y218.208 E24.64289
G1 X110.286 Y218.117 E24.65054
G1 X109.457 Y217.716 E24.68117
G1 X108.885 Y217.385 E24.70315
G1 X108.631 Y217.227 E24.7131
G1 X107.654 Y216.539 E24.75284
G1 X107.587 Y216.486 E24.75568
G1 X107.159 Y216.13 E24.7742
G1 X106.992 Y215.983 E24.7816
G1 X106.328 Y215.345 E24.81222
G1 X105.953 Y214.93 E24.83083
G1 X105.753 Y214.697 E24.84104
G1 X105.184 Y213.973 E24.87167
G1 X104.805 Y213.407 E24.89432
G1 X104.682 Y213.21 E24.90205
G1 X104.228 Y212.409 E24.93267
G1 X103.969 Y211.862 E24.9528
G1 X103.798 Y211.473 E24.96693
G1 X103.465 Y210.615 E24.99754
G1 X103.199 Y209.698 E25.0293
G1 X103.155 Y209.516 E25.03553
G1 X102.978 Y208.612 E25.06617
G1 X102.911 Y208.08 E25.084
G1 X102.862 Y207.59 E25.10038
G1 X102.81 Y206.689 E25.1304
G1 X102.802 Y206.052 E25.15159
G1 X102.803 Y195.644 E25.49776
G1 X102.813 Y194.937 E25.52127
G1 X102.84 Y194.312 E25.54208
G1 X102.857 Y194.08 E25.54982
G1 X102.964 Y193.166 E25.58043
G1 X103.069 Y192.612 E25.59918
G1 X103.14 Y192.284 E25.61034
G1 X103.374 Y191.394 E25.64095
G1 X103.575 Y190.805 E25.66165
G1 X103.692 Y190.493 E25.67273
G1 X104.052 Y189.646 E25.70334
G1 X104.485 Y188.833 E25.73398
G1 X104.986 Y188.061 E25.76459
G1 X105.397 Y187.523 E25.78711
G1 X106.06 Y186.71 E25.822
G1 X107.391 Y185.129 E25.89074
G1 X109.011 Y183.149 E25.97583
G1 X110.582 Y181.114 E26.06133
G1 X112.053 Y179.093 E26.14447
G1 X113.491 Y176.999 E26.22896
G1 X114.857 Y174.879 E26.31284
G1 X116.177 Y172.699 E26.3976
G1 X117.409 Y170.528 E26.48063
G1 X118.608 Y168.27 E26.56566
G1 X119.722 Y166.017 E26.64925
G1 X120.78 Y163.72 E26.73337
G1 X121.77 Y161.396 E26.81739
G1 X122.717 Y158.995 E26.90323
G1 X123.553 Y156.672 E26.98534
G1 X124.348 Y154.258 E27.06988
G1 X125.072 Y151.831 E27.15411
G1 X125.405 Y150.593 E27.19675
G1 X125.611 Y149.867 E27.22185
G1 X125.991 Y148.763 E27.26069
G1 X126.073 Y148.562 E27.26791
G1 X126.458 Y147.725 E27.29855
G1 X126.716 Y147.252 E27.31647
G1 X126.935 Y146.874 E27.331
G1 X127.431 Y146.098 E27.36163
G1 X128.015 Y145.341 E27.39343
G1 X128.136 Y145.198 E27.39966
G1 X128.761 Y144.522 E27.43028
G1 X129.19 Y144.118 E27.44988
G0 F6000 X129.456 Y144.417
G1 F1200 X129.777 Y144.132 E27.46416
G1 X130.478 Y143.563 E27.49419
G1 X131.129 Y143.119 E27.5204
G1 X131.298 Y143.013 E27.52703
G1 X132.084 Y142.568 E27.55707
G1 X132.622 Y142.312 E27.57689
G1 X133.012 Y142.141 E27.59105
G1 X133.854 Y141.816 E27.62107
G1 X134.672 Y141.578 E27.64941
G1 X134.855 Y141.533 E27.65568
G1 X135.741 Y141.356 E27.68573
G1 X136.276 Y141.289 E27.70366
G1 X136.766 Y141.24 E27.72004
G1 X137.633 Y141.19 E27.74892
G1 X138.264 Y141.182 E27.76991
G1 X224.991 Y141.182 E30.65446
G1 X225.835 Y141.193 E30.68254
G1 X226.41 Y141.217 E30.70168
G1 X227.815 Y141.317 E30.74853
G1 X230.312 Y141.46 E30.83171
G1 X232.884 Y141.534 E30.9173
G1 X235.418 Y141.536 E31.00158
G1 X237.949 Y141.466 E31.08579
G1 X240.497 Y141.324 E31.17067
G1 X241.82 Y141.221 E31.2148
G1 X242.321 Y141.195 E31.23149
G1 X242.641 Y141.186 E31.24214
G1 X242.928 Y141.182 E31.25168
G1 X244.025 Y141.183 E31.28817
G1 X244.731 Y141.193 E31.31165
G1 X245.147 Y141.207 E31.3255
G1 X245.612 Y141.239 E31.341
G1 X245.85 Y141.261 E31.34895
G1 X246.759 Y141.387 E31.37947
G1 X246.835 Y141.401 E31.38204
G1 X247.512 Y141.549 E31.40509
G1 X247.739 Y141.607 E31.41289
G1 X248.876 Y141.97 E31.45258
G1 X248.967 Y142.005 E31.45583
G1 X249.377 Y142.173 E31.47056
G1 X249.586 Y142.264 E31.47814
G1 X250.607 Y142.778 E31.51616
G1 X251.024 Y143.029 E31.53235
G1 X251.228 Y143.158 E31.54038
G1 X252.149 Y143.814 E31.57799
G1 X252.209 Y143.862 E31.58054
G1 X252.567 Y144.162 E31.59608
G1 X252.731 Y144.306 E31.60334
G1 X253.383 Y144.932 E31.6334
G1 X253.727 Y145.311 E31.65042
G1 X253.927 Y145.543 E31.66061
G1 X254.485 Y146.252 E31.69062
G1 X254.855 Y146.805 E31.71275
G1 X254.981 Y147.007 E31.72067
G1 X255.425 Y147.793 E31.75069
G1 X255.658 Y148.285 E31.7688
G1 X255.828 Y148.67 E31.7828
G1 X256.156 Y149.511 E31.81282
G1 X256.408 Y150.379 E31.84288
G1 X256.453 Y150.564 E31.84922
G1 X256.627 Y151.45 E31.87925
G1 X256.691 Y151.958 E31.89628
G1 X256.74 Y152.447 E31.91262
G1 X256.79 Y153.316 E31.94157
G1 X256.798 Y153.948 E31.9626
G1 X256.797 Y164.309 E32.3072
G1 X256.787 Y165.05 E32.33185
G1 X256.761 Y165.654 E32.35196
G1 X256.744 Y165.887 E32.35973
