;FLAVOR:Marlin
;TIME:14567
;Filament used: 14.092m
;Layer height: 0.2
;MINX:127.6
;MINY:127.6
;MINZ:0.2
;MAXX:232.4
;MAXY:232.401
;MAXZ:55
;Generated with Creality Slicer 4.8.2-172
M140 S60
M105
M190 S60
M104 S200
M105
M109 S200
M82 ;absolute extrusion mode

G28 ;Home

G92 E0 ;Reset Extruder
G1 Z2.0 F3000 ;Move Z Axis up
G1 X10.1 Y20 Z0.28 F5000.0 ;Move to start position
G1 X10.1 Y200.0 Z0.28 F1500.0 E15 ;Draw the first line
G1 X10.4 Y200.0 Z0.28 F5000.0 ;Move to side a little
G1 X10.4 Y20 Z0.28 F1500.0 E30 ;Draw the second line
G92 E0 ;Reset Extruder
G1 Z2.0 F3000 ;Move Z Axis up

G92 E0
G92 E0
G1 F3600 E-5
;LAYER_COUNT:275
;LAYER:0
M107
G0 F6000 X179.587 Y132.411 Z0.2
;TYPE:SKIRT
G1 F3600 E0
G1 F1200 X180.156 Y131.666 E0.03118
G1 X180.831 Y130.927 E0.06447
G1 X180.926 Y130.832 E0.06894
G1 X181.617 Y130.198 E0.10013
G1 X182.359 Y129.624 E0.13133
G1 X183.148 Y129.117 E0.16252
G1 X183.976 Y128.678 E0.19369
G1 X184.84 Y128.311 E0.22491
G1 X185.731 Y128.019 E0.2561
G1 X186.644 Y127.805 E0.28729
G1 X187.572 Y127.668 E0.31849
G1 X188.335 Y127.616 E0.34393
G1 X188.719 Y127.606 E0.3567
G1 X189.262 Y127.6 E0.37476
G1 X220.693 Y127.6 E1.42016
G1 X221.549 Y127.611 E1.44864
G1 X222.485 Y127.665 E1.47982
G1 X223.413 Y127.797 E1.511
G1 X224.327 Y128.009 E1.5422
G1 X225.219 Y128.298 E1.57339
G1 X226.084 Y128.661 E1.60459
G1 X226.914 Y129.097 E1.63577
G1 X227.705 Y129.602 E1.66699
G1 X228.449 Y130.173 E1.69818
G1 X229.142 Y130.805 E1.72937
G1 X229.779 Y131.493 E1.76056
G1 X230.354 Y132.234 E1.79175
G1 X230.865 Y133.02 E1.82294
G1 X231.307 Y133.848 E1.85415
G1 X231.676 Y134.71 E1.88534
G1 X231.971 Y135.6 E1.91653
G1 X232.189 Y136.512 E1.94771
G1 X232.329 Y137.44 E1.97893
G1 X232.387 Y138.301 E2.00763
G1 X232.396 Y138.621 E2.01828
G1 X232.4 Y138.93 E2.02856
G1 X232.4 Y205.495 E4.24252
G1 X232.39 Y206.196 E4.26583
G1 X232.337 Y207.132 E4.29702
G1 X232.204 Y208.061 E4.32823
G1 X231.992 Y208.974 E4.3594
G1 X231.704 Y209.867 E4.39061
G1 X231.34 Y210.731 E4.42179
G1 X230.904 Y211.562 E4.45301
G1 X230.399 Y212.352 E4.48419
G1 X229.829 Y213.096 E4.51536
G1 X229.48 Y213.493 E4.53295
G1 X229.351 Y213.633 E4.53928
G1 X229.124 Y213.872 E4.55024
G1 X228.813 Y214.189 E4.56501
G1 X214.191 Y228.809 E5.25274
G1 X213.697 Y229.288 E5.27562
G1 X212.997 Y229.912 E5.30681
G1 X212.246 Y230.473 E5.33799
G1 X211.449 Y230.969 E5.36921
G1 X210.614 Y231.395 E5.40039
G1 X209.745 Y231.748 E5.43159
G1 X208.849 Y232.026 E5.46279
G1 X207.933 Y232.227 E5.49398
G1 X207.003 Y232.349 E5.52518
G1 X206.414 Y232.385 E5.54481
G1 X206.027 Y232.395 E5.55768
G1 X205.483 Y232.401 E5.57578
G1 X139.14 Y232.399 E7.78235
G1 X138.477 Y232.389 E7.80441
G1 X137.541 Y232.335 E7.83559
G1 X136.613 Y232.201 E7.86678
G1 X135.699 Y231.989 E7.89798
G1 X134.807 Y231.699 E7.92918
G1 X133.943 Y231.335 E7.96036
G1 X133.113 Y230.899 E7.99155
G1 X132.323 Y230.393 E8.02275
G1 X131.579 Y229.822 E8.05394
G1 X130.886 Y229.189 E8.08516
G1 X130.365 Y228.634 E8.11048
G1 X130.33 Y228.594 E8.11225
G1 X129.743 Y227.862 E8.14345
G1 X129.22 Y227.083 E8.17466
G1 X128.766 Y226.263 E8.20584
G1 X128.383 Y225.406 E8.23706
G1 X128.075 Y224.521 E8.26822
G1 X127.843 Y223.612 E8.29943
G1 X127.69 Y222.687 E8.33061
G1 X127.611 Y221.621 E8.36616
G1 X127.603 Y221.296 E8.37698
G1 X127.6 Y221.025 E8.38599
G1 X127.6 Y189.232 E9.44343
G1 X127.61 Y188.552 E9.46605
G1 X127.664 Y187.616 E9.49723
G1 X127.797 Y186.688 E9.52841
G1 X128.009 Y185.774 E9.55962
G1 X128.298 Y184.882 E9.59081
G1 X128.662 Y184.017 E9.62202
G1 X129.098 Y183.187 E9.6532
G1 X129.604 Y182.397 E9.68441
G1 X130.175 Y181.653 E9.7156
G1 X130.807 Y180.96 E9.74679
G1 X131.496 Y180.324 E9.77798
G1 X132.373 Y179.653 E9.81471
G1 X132.636 Y179.472 E9.82533
G1 X133.43 Y178.973 E9.85652
G1 X134.178 Y178.585 E9.88454
G1 X136.596 Y177.444 E9.97347
G1 X138.838 Y176.308 E10.05707
G1 X141.056 Y175.103 E10.14102
G1 X143.236 Y173.838 E10.22485
G1 X145.372 Y172.518 E10.30837
G1 X147.451 Y171.149 E10.39116
G1 X149.557 Y169.675 E10.47666
G1 X151.535 Y168.205 E10.55862
G1 X153.532 Y166.633 E10.64315
G1 X155.468 Y165.017 E10.72703
G1 X157.372 Y163.335 E10.81153
G1 X159.182 Y161.642 E10.89396
G1 X160.977 Y159.864 E10.97799
G1 X162.713 Y158.045 E11.06162
G1 X164.399 Y156.177 E11.14532
G1 X166.046 Y154.242 E11.22983
G1 X167.621 Y152.285 E11.31338
G1 X169.124 Y150.303 E11.39612
G1 X170.61 Y148.227 E11.48103
G1 X172.003 Y146.158 E11.56399
G1 X173.36 Y144.014 E11.64838
G1 X174.626 Y141.881 E11.73088
G1 X175.868 Y139.649 E11.81584
G1 X177.016 Y137.44 E11.89864
G1 X178.12 Y135.164 E11.98277
G1 X178.65 Y134.034 E12.02429
G1 X179.084 Y133.203 E12.05547
G1 X179.587 Y132.411 E12.08667
G0 F6000 X179.935 Y132.613
G1 F1200 X180.496 Y131.883 E12.1173
G1 X181.114 Y131.21 E12.14769
G1 X181.209 Y131.115 E12.15215
G1 X181.887 Y130.493 E12.18276
G1 X182.617 Y129.932 E12.21338
G1 X183.393 Y129.436 E12.24401
G1 X184.209 Y129.01 E12.27463
G1 X185.059 Y128.656 E12.30525
G1 X185.937 Y128.378 E12.33588
G1 X186.835 Y128.176 E12.3665
G1 X187.748 Y128.053 E12.39714
G1 X188.348 Y128.016 E12.41713
G1 X188.723 Y128.006 E12.42961
G1 X189.262 Y128 E12.44754
G1 X220.693 Y128 E13.49293
G1 X221.543 Y128.011 E13.52121
G1 X222.462 Y128.064 E13.55183
G1 X223.373 Y128.197 E13.58245
G1 X224.269 Y128.408 E13.61306
G1 X225.143 Y128.696 E13.64367
G1 X225.99 Y129.059 E13.67432
G1 X226.801 Y129.494 E13.70493
G1 X227.571 Y129.998 E13.73554
G1 X228.295 Y130.567 E13.76616
G1 X228.967 Y131.197 E13.7968
G1 X229.582 Y131.882 E13.82742
G1 X230.135 Y132.618 E13.85804
G1 X230.622 Y133.399 E13.88865
G1 X231.039 Y134.22 E13.91928
G1 X231.384 Y135.074 E13.94991
G1 X231.653 Y135.954 E13.98052
G1 X231.845 Y136.855 E14.01116
G1 X231.958 Y137.768 E14.04176
G1 X231.987 Y138.312 E14.05988
G1 X231.996 Y138.632 E14.07052
G1 X232 Y138.93 E14.08044
G1 X232 Y205.489 E16.2942
G1 X231.99 Y206.19 E16.31751
G1 X231.937 Y207.109 E16.34813
G1 X231.804 Y208.02 E16.37875
G1 X231.593 Y208.916 E16.40937
G1 X231.305 Y209.791 E16.44001
G1 X230.942 Y210.637 E16.47063
G1 X230.507 Y211.448 E16.50124
G1 X230.003 Y212.219 E16.53187
G1 X229.186 Y213.222 E16.5749
G1 X229.057 Y213.362 E16.58123
G1 X228.839 Y213.592 E16.59177
G1 X228.612 Y213.824 E16.60257
G1 X213.913 Y228.522 E17.29394
G1 X213.419 Y229.001 E17.31682
G1 X212.731 Y229.613 E17.34745
G1 X211.992 Y230.162 E17.37807
G1 X211.209 Y230.646 E17.40869
G1 X210.386 Y231.059 E17.43931
G1 X209.531 Y231.4 E17.46993
G1 X208.649 Y231.665 E17.50056
G1 X207.748 Y231.853 E17.53117
G1 X206.4 Y231.985 E17.57622
G1 X206.022 Y231.995 E17.5888
G1 X205.483 Y232.001 E17.60673
G1 X139.146 Y231.999 E19.8131
G1 X138.483 Y231.989 E19.83516
G1 X137.564 Y231.935 E19.86578
G1 X136.653 Y231.802 E19.8964
G1 X135.757 Y231.59 E19.92702
G1 X134.883 Y231.301 E19.95764
G1 X134.037 Y230.937 E19.98827
G1 X133.226 Y230.501 E20.0189
G1 X132.456 Y229.997 E20.04951
G1 X131.733 Y229.428 E20.08011
G1 X131.061 Y228.798 E20.11074
G1 X130.631 Y228.33 E20.13188
G1 X130.055 Y227.612 E20.1625
G1 X129.544 Y226.846 E20.19312
G1 X129.101 Y226.039 E20.22374
G1 X128.73 Y225.196 E20.25438
G1 X128.434 Y224.324 E20.285
G1 X128.214 Y223.43 E20.31563
G1 X128.073 Y222.521 E20.34622
G1 X128.011 Y221.611 E20.37656
G1 X128.003 Y221.286 E20.38737
G1 X128 Y221.025 E20.39605
G1 X128 Y189.238 E21.45329
G1 X128.01 Y188.558 E21.47591
G1 X128.064 Y187.639 E21.50653
G1 X128.197 Y186.728 E21.53715
G1 X128.408 Y185.832 E21.56777
G1 X128.697 Y184.958 E21.59838
G1 X129.06 Y184.112 E21.629
G1 X129.496 Y183.301 E21.65963
G1 X130 Y182.53 E21.69027
G1 X130.569 Y181.807 E21.72087
G1 X131.198 Y181.135 E21.75148
G1 X131.884 Y180.52 E21.78212
G1 X132.6 Y179.982 E21.81191
G1 X132.863 Y179.801 E21.82253
G1 X133.643 Y179.313 E21.85313
G1 X134.349 Y178.947 E21.87958
G1 X136.769 Y177.805 E21.96858
G1 X139.031 Y176.659 E22.05292
G1 X141.241 Y175.458 E22.13658
G1 X143.425 Y174.19 E22.22057
G1 X145.596 Y172.849 E22.30545
G1 X147.695 Y171.467 E22.38903
G1 X149.763 Y170.02 E22.47298
G1 X151.797 Y168.508 E22.55728
G1 X153.769 Y166.956 E22.64074
G1 X155.743 Y165.308 E22.72627
G1 X157.627 Y163.644 E22.80987
G1 X159.454 Y161.935 E22.89308
G1 X161.265 Y160.141 E22.97787
G1 X163.016 Y158.306 E23.06223
G1 X164.702 Y156.438 E23.14592
G1 X166.362 Y154.489 E23.23107
G1 X167.919 Y152.553 E23.3137
G1 X169.452 Y150.532 E23.39807
G1 X170.94 Y148.453 E23.48311
G1 X172.34 Y146.373 E23.5665
G1 X173.699 Y144.226 E23.65101
G1 X174.97 Y142.085 E23.73382
G1 X176.214 Y139.849 E23.81893
G1 X177.381 Y137.603 E23.90311
G1 X178.47 Y135.36 E23.98604
G1 X179.012 Y134.204 E24.02851
G1 X179.439 Y133.388 E24.05914
G1 X179.935 Y132.613 E24.08974
G0 F6000 X180.282 Y132.814
G1 F1200 X180.836 Y132.101 E24.11977
G1 X181.397 Y131.493 E24.14729
G1 X181.492 Y131.398 E24.15176
G1 X182.158 Y130.788 E24.1818
G1 X182.875 Y130.239 E24.21183
G1 X183.639 Y129.757 E24.24188
G1 X184.442 Y129.343 E24.27193
G1 X185.278 Y129.003 E24.30194
G1 X186.141 Y128.737 E24.33198
G1 X187.024 Y128.549 E24.36201
G1 X188.362 Y128.416 E24.40673
G1 X188.728 Y128.406 E24.41891
G1 X189.262 Y128.4 E24.43667
G1 X220.693 Y128.4 E25.48207
G1 X221.537 Y128.411 E25.51014
G1 X222.439 Y128.464 E25.54019
G1 X223.332 Y128.596 E25.57022
G1 X224.21 Y128.807 E25.60025
G1 X225.066 Y129.095 E25.63029
G1 X225.893 Y129.457 E25.66032
G1 X226.685 Y129.892 E25.69037
G1 X227.436 Y130.394 E25.72041
G1 X228.139 Y130.961 E25.75045
G1 X228.789 Y131.588 E25.78049
G1 X229.381 Y132.27 E25.81053
G1 X229.911 Y133.001 E25.84056
G1 X230.373 Y133.777 E25.8706
G1 X230.766 Y134.59 E25.90063
G1 X231.084 Y135.435 E25.93066
G1 X231.327 Y136.305 E25.9607
G1 X231.492 Y137.193 E25.99075
G1 X231.587 Y138.323 E26.02846
G1 X231.596 Y138.643 E26.03911
G1 X231.6 Y138.93 E26.04866
G1 X231.6 Y205.483 E28.26222
G1 X231.59 Y206.184 E28.28554
G1 X231.537 Y207.086 E28.31559
G1 X231.405 Y207.979 E28.34561
G1 X231.194 Y208.858 E28.37568
G1 X230.906 Y209.714 E28.40572
G1 X230.544 Y210.541 E28.43574
G1 X230.11 Y211.333 E28.46578
G1 X229.607 Y212.083 E28.49582
G1 X228.892 Y212.951 E28.53322
G1 X228.763 Y213.091 E28.53955
G1 X228.553 Y213.312 E28.54969
G1 X228.326 Y213.544 E28.56049
G1 X213.634 Y228.235 E29.25153
G1 X213.14 Y228.714 E29.27442
G1 X212.465 Y229.313 E29.30443
G1 X211.739 Y229.85 E29.33447
G1 X210.968 Y230.321 E29.36452
G1 X210.159 Y230.722 E29.39455
G1 X209.318 Y231.05 E29.42457
G1 X208.45 Y231.302 E29.45463
G1 X207.564 Y231.476 E29.48466
G1 X206.387 Y231.585 E29.52398
G1 X206.017 Y231.595 E29.53629
G1 X205.483 Y231.601 E29.55405
G1 X139.152 Y231.599 E31.76023
G1 X138.489 Y231.589 E31.78228
G1 X137.588 Y231.535 E31.81231
G1 X136.694 Y231.402 E31.84237
G1 X135.816 Y231.191 E31.8724
G1 X134.961 Y230.902 E31.90242
G1 X134.134 Y230.539 E31.93246
G1 X133.342 Y230.104 E31.96251
G1 X132.592 Y229.601 E31.99255
G1 X131.889 Y229.034 E32.02259
G1 X130.967 Y228.107 E32.06607
G1 X130.932 Y228.067 E32.06784
G1 X130.368 Y227.361 E32.0979
G1 X129.868 Y226.609 E32.12793
G1 X129.437 Y225.815 E32.15798
G1 X129.078 Y224.987 E32.188
G1 X128.794 Y224.129 E32.21806
G1 X128.587 Y223.25 E32.24809
G1 X128.458 Y222.357 E32.2781
G1 X128.411 Y221.601 E32.30329
G1 X128.403 Y221.276 E32.31411
G1 X128.4 Y221.025 E32.32246
G1 X128.4 Y189.244 E33.3795
G1 X128.41 Y188.564 E33.40212
G1 X128.463 Y187.662 E33.43217
G1 X128.596 Y186.769 E33.4622
G1 X128.807 Y185.891 E33.49223
G1 X129.096 Y185.035 E33.52228
G1 X129.458 Y184.208 E33.55231
G1 X129.893 Y183.416 E33.58236
G1 X130.395 Y182.666 E33.61238
G1 X130.963 Y181.963 E33.64244
G1 X131.59 Y181.313 E33.67247
G1 X132.272 Y180.722 E33.70249
G1 X132.826 Y180.312 E33.72541
G1 X133.089 Y180.131 E33.73603
G1 X133.855 Y179.652 E33.76608
G1 X134.519 Y179.308 E33.79095
G1 X136.956 Y178.158 E33.88058
G1 X139.223 Y177.009 E33.96511
G1 X141.454 Y175.798 E34.04954
G1 X143.631 Y174.534 E34.13327
G1 X145.789 Y173.2 E34.21765
G1 X147.914 Y171.801 E34.30227
G1 X150.025 Y170.324 E34.38796
G1 X152.038 Y168.828 E34.47138
G1 X154.028 Y167.261 E34.55562
G1 X156.001 Y165.614 E34.64111
G1 X157.882 Y163.953 E34.72457
G1 X159.744 Y162.211 E34.80938
G1 X161.553 Y160.419 E34.89407
G1 X163.302 Y158.586 E34.97833
G1 X165.003 Y156.702 E35.06276
G1 X166.647 Y154.772 E35.14708
G1 X168.251 Y152.778 E35.2322
G1 X169.794 Y150.743 E35.31714
G1 X171.265 Y148.688 E35.40119
G1 X172.655 Y146.621 E35.48404
G1 X174.048 Y144.423 E35.57059
G1 X175.321 Y142.277 E35.65358
G1 X176.561 Y140.049 E35.73839
G1 X177.739 Y137.783 E35.82333
G1 X178.834 Y135.526 E35.90677
G1 X179.374 Y134.374 E35.94908
G1 X179.794 Y133.574 E35.97914
G1 X180.282 Y132.814 E36.00918
G1 F3600 E31.00918
;MESH:LackBraceExport_v1.stl
G0 F6000 X187.934 Y139.014
G0 X189.014 Y139.014
G0 X216.728 Y139.407
G0 X214.766 Y141.322
G0 X215.184 Y143.9
G0 X217.077 Y144.868
;TYPE:WALL-INNER
G1 F3600 E36.00918
G1 F1200 X217.512 Y144.902 E36.02369
G1 X217.935 Y144.866 E36.03781
G1 X218.344 Y144.766 E36.05181
G1 X218.728 Y144.607 E36.06564
G1 X219.098 Y144.378 E36.08011
G1 X219.418 Y144.101 E36.09419
G1 X219.692 Y143.778 E36.10827
G1 X219.908 Y143.425 E36.12204
G1 X220.072 Y143.025 E36.13642
G1 X220.168 Y142.623 E36.15016
G1 X220.202 Y142.188 E36.16468
G1 X220.166 Y141.765 E36.1788
G1 X220.066 Y141.356 E36.1928
G1 X219.907 Y140.972 E36.20662
G1 X219.678 Y140.602 E36.2211
G1 X219.401 Y140.282 E36.23517
G1 X219.078 Y140.008 E36.24926
G1 X218.725 Y139.792 E36.26302
G1 X218.325 Y139.628 E36.2774
G1 X218.199 Y139.598 E36.28171
G1 X217.923 Y139.532 E36.29115
G1 X217.488 Y139.498 E36.30566
G1 X217.065 Y139.534 E36.31978
G1 X216.804 Y139.597 E36.32871
G1 X216.656 Y139.634 E36.33379
G1 X216.272 Y139.793 E36.34761
G1 X215.902 Y140.022 E36.36208
G1 X215.582 Y140.299 E36.37616
G1 X215.308 Y140.622 E36.39025
G1 X215.092 Y140.975 E36.40401
G1 X214.928 Y141.375 E36.41839
G1 X214.832 Y141.777 E36.43214
G1 X214.798 Y142.212 E36.44665
G1 X214.834 Y142.635 E36.46077
G1 X214.934 Y143.044 E36.47477
G1 X215.093 Y143.428 E36.4886
G1 X215.322 Y143.798 E36.50307
G1 X215.599 Y144.118 E36.51715
G1 X215.922 Y144.392 E36.53123
G1 X216.275 Y144.608 E36.545
G1 X216.675 Y144.772 E36.55938
G1 X217.077 Y144.868 E36.57312
G0 F6000 X217.14 Y144.472
;TYPE:WALL-OUTER
G1 F1200 X217.51 Y144.501 E36.58547
G1 X217.87 Y144.47 E36.59749
G1 X218.219 Y144.385 E36.60943
G1 X218.545 Y144.25 E36.62117
G1 X218.86 Y144.055 E36.63349
G1 X219.133 Y143.819 E36.64549
G1 X219.367 Y143.543 E36.65753
G1 X219.55 Y143.244 E36.66919
G1 X219.69 Y142.902 E36.68148
G1 X219.772 Y142.56 E36.69318
G1 X219.801 Y142.19 E36.70552
G1 X219.77 Y141.83 E36.71754
G1 X219.685 Y141.481 E36.72948
G1 X219.55 Y141.155 E36.74122
G1 X219.355 Y140.84 E36.75354
G1 X219.119 Y140.567 E36.76555
G1 X218.843 Y140.333 E36.77758
G1 X218.544 Y140.15 E36.78924
G1 X218.202 Y140.01 E36.80153
G1 X217.86 Y139.928 E36.81323
G1 X217.49 Y139.899 E36.82557
G1 X217.13 Y139.93 E36.83759
G1 X216.781 Y140.015 E36.84954
G1 X216.455 Y140.15 E36.86127
G1 X216.14 Y140.345 E36.87359
G1 X215.867 Y140.581 E36.8856
G1 X215.633 Y140.857 E36.89763
G1 X215.45 Y141.156 E36.90929
G1 X215.31 Y141.498 E36.92158
G1 X215.228 Y141.84 E36.93328
G1 X215.199 Y142.21 E36.94562
G1 X215.23 Y142.57 E36.95764
G1 X215.315 Y142.919 E36.96959
G1 X215.45 Y143.245 E36.98133
G1 X215.645 Y143.56 E36.99365
G1 X215.881 Y143.833 E37.00565
G1 X216.157 Y144.067 E37.01768
G1 X216.456 Y144.25 E37.02934
G1 X216.798 Y144.39 E37.04164
G1 X217.14 Y144.472 E37.05333
G0 F6000 X217.072 Y144.906
G1 F3600 E32.05333
G0 F6000 X215.184 Y143.9
G0 X214.766 Y141.322
G0 X216.728 Y139.407
G0 X189.382 Y139.382
G0 X189.027 Y189.027
G0 X139.381 Y189.382
G0 X139.406 Y216.725
G0 X141.303 Y214.772
G0 X143.878 Y215.169
G0 X145.073 Y217.487
G0 X144.262 Y218.984
G0 X143.945 Y219.303
G0 X143.044 Y220.066
;TYPE:WALL-INNER
G1 F3600 E37.05333
G1 F1200 X143.428 Y219.907 E37.06716
G1 X143.798 Y219.678 E37.08163
G1 X144.118 Y219.401 E37.09571
G1 X144.392 Y219.078 E37.10979
G1 X144.608 Y218.725 E37.12356
G1 X144.772 Y218.325 E37.13794
G1 X144.868 Y217.923 E37.15168
G1 X144.902 Y217.488 E37.1662
G1 X144.866 Y217.065 E37.18032
G1 X144.766 Y216.656 E37.19432
G1 X144.607 Y216.272 E37.20814
G1 X144.378 Y215.902 E37.22262
G1 X144.101 Y215.582 E37.23669
G1 X143.778 Y215.308 E37.25078
G1 X143.425 Y215.092 E37.26454
G1 X143.025 Y214.928 E37.27892
