;FLAVOR:Marlin
;TIME:14757
;Filament used: 8.99138m
;Layer height: 0.12
;MINX:103.25
;MINY:158.35
;MINZ:0.12
;MAXX:256.75
;MAXY:201.15
;MAXZ:35.76
;Generated with Creality Slicer 4.8.2-172
M140 S60
M105
M190 S60
M104 S200
M105
M109 S200
M82 ;absolute extrusion mode

G28 ;Home

G92 E0 ;Reset Extruder
G1 Z2.0 F3000 ;Move Z Axis up
G1 X10.1 Y20 Z0.28 F5000.0 ;Move to start position
G1 X10.1 Y200.0 Z0.28 F1500.0 E15 ;Draw the first line
G1 X10.4 Y200.0 Z0.28 F5000.0 ;Move to side a little
G1 X10.4 Y20 Z0.28 F1500.0 E30 ;Draw the second line
G92 E0 ;Reset Extruder
G1 Z2.0 F3000 ;Move Z Axis up

G92 E0
G92 E0
G1 F3600 E-5
;LAYER_COUNT:298
;LAYER:0
M107
G0 F6000 X108.424 Y160.912 Z0.12
;TYPE:SKIRT
G1 F3600 E0
G1 F1200 X109.233 Y160.438 E0.01871
G1 X110.08 Y160.035 E0.03743
G1 X110.958 Y159.705 E0.05615
G1 X111.861 Y159.451 E0.07487
G1 X113.053 Y159.239 E0.09903
G1 X114.125 Y159.108 E0.12058
G1 X116.746 Y158.752 E0.17337
G1 X117.491 Y158.631 E0.18843
G1 X118.495 Y158.481 E0.20869
G1 X119.754 Y158.366 E0.23392
G1 X120.136 Y158.356 E0.24154
G1 X120.679 Y158.35 E0.25238
G1 X128.176 Y158.35 E0.40199
G1 X129.032 Y158.361 E0.41907
G1 X129.891 Y158.407 E0.43624
G1 X130.252 Y158.443 E0.44348
G1 X132.642 Y158.714 E0.49148
G1 X135.144 Y158.927 E0.54159
G1 X137.628 Y159.068 E0.59124
G1 X140.216 Y159.141 E0.64291
G1 X141.509 Y159.15 E0.66871
G1 X163.476 Y159.15 E1.10709
G1 X166.084 Y159.113 E1.15914
G1 X168.606 Y159.006 E1.20951
G1 X171.069 Y158.831 E1.25879
G1 X174.428 Y158.485 E1.32618
G1 X174.829 Y158.438 E1.33423
G1 X175.563 Y158.377 E1.34893
G1 X175.724 Y158.369 E1.35215
G1 X176.136 Y158.356 E1.36037
G1 X176.679 Y158.35 E1.37121
G1 X183.334 Y158.351 E1.50402
G1 X184.031 Y158.361 E1.51793
G1 X184.883 Y158.406 E1.53496
G1 X185.252 Y158.443 E1.54236
G1 X187.642 Y158.714 E1.59036
G1 X190.144 Y158.927 E1.64047
G1 X192.628 Y159.068 E1.69012
G1 X195.216 Y159.141 E1.74179
G1 X196.509 Y159.15 E1.76759
G1 X218.476 Y159.15 E2.20596
G1 X221.084 Y159.113 E2.25802
G1 X223.606 Y159.006 E2.30839
G1 X226.069 Y158.831 E2.35767
G1 X229.428 Y158.485 E2.42505
G1 X229.829 Y158.438 E2.43311
G1 X230.563 Y158.377 E2.44781
G1 X230.724 Y158.369 E2.45102
G1 X231.136 Y158.356 E2.45925
G1 X231.679 Y158.35 E2.47009
G1 X239.347 Y158.351 E2.62311
G1 X240.055 Y158.362 E2.63724
G1 X240.991 Y158.417 E2.65595
G1 X241.588 Y158.494 E2.66797
G1 X242.662 Y158.662 E2.68966
G1 X245.213 Y159.027 E2.74109
G1 X246.004 Y159.117 E2.75697
G1 X247.035 Y159.25 E2.77772
G1 X247.96 Y159.41 E2.79645
G1 X248.867 Y159.648 E2.81516
G1 X249.751 Y159.962 E2.83388
G1 X250.604 Y160.35 E2.85259
G1 X251.422 Y160.81 E2.87131
G1 X252.197 Y161.337 E2.89002
G1 X252.925 Y161.929 E2.90874
G1 X253.336 Y162.312 E2.91995
G1 X253.448 Y162.422 E2.92309
G1 X254.088 Y163.107 E2.94179
G1 X254.668 Y163.844 E2.96051
G1 X255.183 Y164.628 E2.97923
G1 X255.629 Y165.453 E2.99794
G1 X256.004 Y166.313 E3.01667
G1 X256.303 Y167.202 E3.03538
G1 X256.526 Y168.113 E3.0541
G1 X256.671 Y169.039 E3.07281
G1 X256.733 Y169.872 E3.08948
G1 X256.744 Y170.262 E3.09726
G1 X256.75 Y170.785 E3.1077
G1 X256.749 Y184.616 E3.38371
G1 X256.738 Y185.389 E3.39914
G1 X256.73 Y185.685 E3.40505
G1 X256.723 Y185.855 E3.40844
G1 X256.706 Y186.153 E3.4144
G1 X256.688 Y186.416 E3.41966
G1 X256.625 Y187.06 E3.43257
G1 X256.608 Y187.193 E3.43525
G1 X256.534 Y187.685 E3.44518
G1 X256.445 Y188.189 E3.45539
G1 X256.429 Y188.273 E3.4571
G1 X256.276 Y188.956 E3.47107
G1 X256.197 Y189.263 E3.47739
G1 X255.977 Y190.007 E3.49288
G1 X255.812 Y190.501 E3.50327
G1 X255.447 Y191.446 E3.52349
G1 X255.37 Y191.621 E3.5273
G1 X255.191 Y192.009 E3.53583
G1 X255.096 Y192.204 E3.54016
G1 X254.758 Y192.844 E3.5546
G1 X254.498 Y193.299 E3.56506
G1 X253.922 Y194.201 E3.58642
G1 X253.613 Y194.637 E3.59708
G1 X252.974 Y195.454 E3.61778
G1 X252.875 Y195.569 E3.62081
G1 X252.528 Y195.954 E3.63115
G1 X252.209 Y196.291 E3.64041
G1 X251.769 Y196.73 E3.65281
G1 X251.431 Y197.044 E3.66202
G1 X251.279 Y197.18 E3.66609
G1 X250.831 Y197.559 E3.6778
G1 X250.699 Y197.665 E3.68118
G1 X250.224 Y198.026 E3.69309
G1 X249.955 Y198.219 E3.69969
G1 X249.501 Y198.528 E3.71065
G1 X249.352 Y198.624 E3.71419
G1 X248.901 Y198.899 E3.72473
G1 X248.569 Y199.091 E3.73238
G1 X247.981 Y199.408 E3.74572
G1 X247.757 Y199.52 E3.75071
G1 X247.319 Y199.728 E3.76039
G1 X246.482 Y200.076 E3.77848
G1 X246.186 Y200.185 E3.78477
G1 X245.806 Y200.317 E3.7928
G1 X245.696 Y200.353 E3.79511
G1 X245.121 Y200.524 E3.80708
G1 X244.632 Y200.655 E3.81719
G1 X243.609 Y200.878 E3.83808
G1 X243.24 Y200.94 E3.84555
G1 X242.651 Y201.023 E3.85742
G1 X242.332 Y201.059 E3.86382
G1 X241.43 Y201.123 E3.88187
G1 X240.767 Y201.143 E3.89511
G1 X240.253 Y201.15 E3.90536
G1 X187.025 Y201.148 E4.96759
G1 X186.319 Y201.138 E4.98168
G1 X186.01 Y201.129 E4.98785
G1 X185.17 Y201.093 E5.00462
G1 X183.795 Y201.015 E5.03211
G1 X181.276 Y200.945 E5.0824
G1 X178.753 Y200.947 E5.13275
G1 X176.242 Y201.019 E5.18288
G1 X175.547 Y201.057 E5.19677
G1 X175.413 Y201.059 E5.19944
G1 X174.312 Y201.115 E5.22144
G1 X173.951 Y201.127 E5.22865
G1 X172.804 Y201.148 E5.25154
G1 X172.603 Y201.15 E5.25555
G1 X119.83 Y201.149 E6.3087
G1 X118.997 Y201.137 E6.32532
G1 X118.638 Y201.116 E6.3325
G1 X118.367 Y201.112 E6.33791
G1 X117.98 Y201.086 E6.34565
G1 X117.304 Y201.02 E6.3592
G1 X117.165 Y201.002 E6.362
G1 X116.687 Y200.929 E6.37165
G1 X116.452 Y200.888 E6.37641
G1 X115.763 Y200.745 E6.39045
G1 X115.278 Y200.628 E6.40041
G1 X114.363 Y200.365 E6.41941
G1 X113.984 Y200.238 E6.42738
G1 X113.039 Y199.872 E6.44761
G1 X112.495 Y199.632 E6.45947
G1 X111.292 Y199.011 E6.48649
G1 X110.964 Y198.815 E6.49412
G1 X110.342 Y198.413 E6.50889
G1 X109.86 Y198.079 E6.5206
G1 X108.807 Y197.25 E6.54734
G1 X108.467 Y196.947 E6.55643
G1 X108.066 Y196.572 E6.56739
G1 X107.726 Y196.226 E6.57707
G1 X107.526 Y196.013 E6.5829
G1 X107.267 Y195.727 E6.5906
G1 X107.113 Y195.551 E6.59526
G1 X106.788 Y195.162 E6.60538
G1 X106.69 Y195.039 E6.60852
G1 X106.367 Y194.612 E6.6192
G1 X106.156 Y194.319 E6.62641
G1 X105.785 Y193.771 E6.63962
G1 X105.711 Y193.654 E6.64238
G1 X105.429 Y193.182 E6.65335
G1 X105.276 Y192.911 E6.65956
G1 X105.009 Y192.408 E6.67093
G1 X104.871 Y192.131 E6.6771
G1 X104.705 Y191.781 E6.68483
G1 X104.609 Y191.57 E6.68946
G1 X104.402 Y191.085 E6.69998
G1 X104.357 Y190.972 E6.70241
G1 X104.153 Y190.418 E6.71419
G1 X104.04 Y190.083 E6.72125
G1 X103.786 Y189.211 E6.73937
G1 X103.707 Y188.892 E6.74593
G1 X103.523 Y187.989 E6.76432
G1 X103.427 Y187.39 E6.77643
G1 X103.316 Y186.433 E6.79565
G1 X103.295 Y186.139 E6.80153
G1 X103.274 Y185.755 E6.80921
G1 X103.263 Y185.453 E6.81524
G1 X103.257 Y185.191 E6.82047
G1 X103.25 Y184.576 E6.83274
G1 X103.251 Y170.793 E7.1078
G1 X103.261 Y170.11 E7.12143
G1 X103.315 Y169.174 E7.14014
G1 X103.448 Y168.245 E7.15887
G1 X103.66 Y167.332 E7.17757
G1 X103.949 Y166.439 E7.1963
G1 X104.313 Y165.575 E7.21501
G1 X104.749 Y164.745 E7.23372
G1 X105.254 Y163.955 E7.25243
G1 X105.825 Y163.21 E7.27116
G1 X106.457 Y162.518 E7.28987
G1 X106.818 Y162.171 E7.29986
G1 X106.941 Y162.058 E7.30319
G1 X107.658 Y161.453 E7.32191
G1 X108.424 Y160.912 E7.34063
G0 F6000 X108.669 Y161.23
G1 F1200 X109.466 Y160.768 E7.35901
G1 X110.299 Y160.376 E7.37738
G1 X111.163 Y160.059 E7.39575
G1 X112.052 Y159.818 E7.41413
G1 X113.101 Y159.636 E7.43538
G1 X114.231 Y159.498 E7.4581
G1 X116.793 Y159.15 E7.50969
G1 X117.55 Y159.026 E7.525
G1 X118.554 Y158.876 E7.54526
G1 X119.767 Y158.766 E7.56957
G1 X120.14 Y158.756 E7.57701
G1 X120.679 Y158.75 E7.58777
G1 X128.176 Y158.75 E7.73738
G1 X129.026 Y158.761 E7.75434
G1 X129.854 Y158.805 E7.77089
G1 X130.207 Y158.84 E7.77797
G1 X132.596 Y159.111 E7.82595
G1 X135.125 Y159.326 E7.8766
G1 X137.63 Y159.468 E7.92667
G1 X140.202 Y159.541 E7.97802
G1 X141.506 Y159.55 E8.00404
G1 X163.482 Y159.55 E8.4426
G1 X166.107 Y159.513 E8.49499
G1 X168.615 Y159.406 E8.54508
G1 X171.107 Y159.23 E8.59494
G1 X174.44 Y158.886 E8.6618
G1 X174.875 Y158.835 E8.67055
G1 X175.583 Y158.776 E8.68472
G1 X175.744 Y158.768 E8.68794
G1 X176.14 Y158.756 E8.69585
G1 X176.679 Y158.75 E8.7066
G1 X183.328 Y158.751 E8.83929
G1 X184.025 Y158.761 E8.8532
G1 X184.846 Y158.805 E8.86961
G1 X185.207 Y158.84 E8.87685
G1 X187.596 Y159.111 E8.92483
G1 X190.125 Y159.326 E8.97548
G1 X192.63 Y159.468 E9.02555
G1 X195.202 Y159.541 E9.0769
G1 X196.506 Y159.55 E9.10292
G1 X218.482 Y159.55 E9.54148
G1 X221.107 Y159.513 E9.59387
G1 X223.615 Y159.406 E9.64396
G1 X226.107 Y159.23 E9.69381
G1 X229.44 Y158.886 E9.76068
G1 X229.875 Y158.835 E9.76942
G1 X230.583 Y158.776 E9.7836
G1 X230.744 Y158.768 E9.78682
G1 X231.14 Y158.756 E9.79472
G1 X231.679 Y158.75 E9.80548
G1 X239.341 Y158.751 E9.95838
G1 X240.049 Y158.762 E9.97251
G1 X240.968 Y158.817 E9.99089
G1 X241.526 Y158.889 E10.00211
G1 X242.62 Y159.061 E10.02421
G1 X245.144 Y159.421 E10.07509
G1 X245.953 Y159.514 E10.09134
G1 X246.984 Y159.647 E10.11209
G1 X247.891 Y159.804 E10.13046
G1 X248.781 Y160.04 E10.14883
G1 X249.648 Y160.352 E10.16722
G1 X250.483 Y160.737 E10.18557
G1 X251.283 Y161.194 E10.20396
G1 X252.039 Y161.719 E10.22233
G1 X253.056 Y162.597 E10.24914
G1 X253.168 Y162.707 E10.25227
G1 X253.796 Y163.38 E10.27064
G1 X254.363 Y164.105 E10.28901
G1 X254.866 Y164.877 E10.30739
G1 X255.299 Y165.689 E10.32576
G1 X255.661 Y166.536 E10.34414
G1 X255.947 Y167.411 E10.36251
G1 X256.157 Y168.307 E10.38088
G1 X256.288 Y169.219 E10.39926
G1 X256.333 Y169.886 E10.4126
G1 X256.344 Y170.267 E10.42021
G1 X256.35 Y170.785 E10.43055
G1 X256.349 Y184.61 E10.70644
G1 X256.338 Y185.383 E10.72187
G1 X256.323 Y185.838 E10.73095
G1 X256.307 Y186.126 E10.73671
G1 X256.289 Y186.389 E10.74197
G1 X256.228 Y187.009 E10.7544
G1 X256.211 Y187.142 E10.75708
G1 X256.14 Y187.617 E10.76666
G1 X256.052 Y188.114 E10.77674
G1 X256.036 Y188.198 E10.77844
G1 X255.889 Y188.857 E10.79192
G1 X255.81 Y189.164 E10.79824
G1 X255.598 Y189.88 E10.81314
G1 X255.433 Y190.374 E10.82354
G1 X255.081 Y191.285 E10.84303
G1 X255.004 Y191.46 E10.84684
G1 X254.831 Y191.833 E10.85505
G1 X254.736 Y192.028 E10.85938
G1 X254.41 Y192.645 E10.8733
G1 X254.15 Y193.1 E10.88376
G1 X253.595 Y193.97 E10.90436
G1 X253.286 Y194.406 E10.91502
G1 X252.671 Y195.193 E10.93495
G1 X252.572 Y195.308 E10.93798
G1 X252.237 Y195.679 E10.94796
G1 X251.918 Y196.016 E10.95722
G1 X251.495 Y196.439 E10.96915
G1 X251.371 Y196.556 E10.97256
G1 X251.164 Y196.746 E10.97816
G1 X251.012 Y196.882 E10.98223
G1 X250.581 Y197.247 E10.9935
G1 X250.449 Y197.353 E10.99688
G1 X249.991 Y197.701 E11.00836
G1 X249.722 Y197.894 E11.01497
G1 X249.284 Y198.192 E11.02554
G1 X249.135 Y198.288 E11.02908
G1 X248.701 Y198.553 E11.03923
G1 X248.369 Y198.745 E11.04688
G1 X247.802 Y199.05 E11.05973
G1 X247.578 Y199.162 E11.06473
G1 X247.307 Y199.293 E11.07073
G1 X247.15 Y199.366 E11.07419
G1 X246.344 Y199.701 E11.09161
G1 X246.048 Y199.81 E11.0979
G1 X245.682 Y199.937 E11.10563
G1 X245.572 Y199.973 E11.10794
G1 X245.018 Y200.138 E11.11948
G1 X244.529 Y200.269 E11.12958
G1 X243.542 Y200.483 E11.14973
G1 X243.173 Y200.545 E11.1572
G1 X242.606 Y200.625 E11.16863
G1 X242.287 Y200.661 E11.17503
G1 X241.418 Y200.723 E11.19242
G1 X240.755 Y200.743 E11.20566
G1 X240.253 Y200.75 E11.21568
G1 X187.031 Y200.748 E12.27778
G1 X186.325 Y200.738 E12.29187
G1 X186.027 Y200.73 E12.29782
G1 X185.341 Y200.701 E12.31152
G1 X183.829 Y200.616 E12.34174
G1 X181.287 Y200.545 E12.39249
G1 X178.776 Y200.547 E12.4426
G1 X176.21 Y200.62 E12.49383
G1 X175.525 Y200.658 E12.50752
G1 X175.369 Y200.66 E12.51063
G1 X174.291 Y200.715 E12.53217
G1 X173.944 Y200.727 E12.5391
G1 X172.603 Y200.75 E12.56587
G1 X119.835 Y200.749 E13.61891
G1 X119.002 Y200.737 E13.63553
G1 X118.804 Y200.726 E13.63949
G1 X118.393 Y200.713 E13.6477
G1 X118.006 Y200.687 E13.65544
G1 X117.356 Y200.623 E13.66847
G1 X117.217 Y200.605 E13.67127
G1 X116.756 Y200.535 E13.68057
G1 X116.521 Y200.494 E13.68534
G1 X115.857 Y200.356 E13.69887
G1 X115.372 Y200.239 E13.70883
G1 X114.49 Y199.986 E13.72714
G1 X114.111 Y199.859 E13.73511
G1 X113.2 Y199.506 E13.75461
G1 X112.656 Y199.266 E13.76648
G1 X111.498 Y198.667 E13.79249
G1 X111.17 Y198.471 E13.80012
G1 X110.57 Y198.085 E13.81436
G1 X110.088 Y197.751 E13.82606
G1 X109.073 Y196.952 E13.85184
G1 X108.733 Y196.649 E13.86093
G1 X108.345 Y196.286 E13.87153
G1 X108.018 Y195.952 E13.88086
G1 X107.818 Y195.739 E13.88669
G1 X107.568 Y195.463 E13.89412
G1 X107.414 Y195.287 E13.89879
G1 X107.101 Y194.912 E13.90853
G1 X107.003 Y194.789 E13.91167
G1 X106.691 Y194.378 E13.92197
G1 X106.48 Y194.085 E13.92918
G1 X106.123 Y193.557 E13.94189
G1 X106.049 Y193.44 E13.94466
G1 X105.777 Y192.985 E13.95524
G1 X105.624 Y192.714 E13.96145
G1 X105.367 Y192.23 E13.97238
G1 X105.229 Y191.953 E13.97856
G1 X105.069 Y191.616 E13.986
G1 X104.973 Y191.405 E13.99063
G1 X104.773 Y190.937 E14.00079
G1 X104.728 Y190.824 E14.00321
G1 X104.532 Y190.29 E14.01456
G1 X104.419 Y189.955 E14.02162
G1 X104.174 Y189.115 E14.03908
G1 X104.095 Y188.796 E14.04564
G1 X103.918 Y187.925 E14.06338
G1 X103.822 Y187.326 E14.07548
G1 X103.715 Y186.404 E14.09401
G1 X103.694 Y186.11 E14.09989
G1 X103.674 Y185.741 E14.10726
G1 X103.663 Y185.439 E14.11329
G1 X103.657 Y185.186 E14.11834
G1 X103.65 Y184.576 E14.13052
G1 X103.651 Y170.799 E14.40545
G1 X103.661 Y170.116 E14.41908
G1 X103.715 Y169.197 E14.43746
G1 X103.848 Y168.286 E14.45583
G1 X104.059 Y167.39 E14.4742
G1 X104.348 Y166.515 E14.49259
G1 X104.711 Y165.669 E14.51096
G1 X105.146 Y164.858 E14.52932
G1 X105.65 Y164.088 E14.54769
G1 X106.219 Y163.364 E14.56607
G1 X107.089 Y162.465 E14.59103
G1 X107.212 Y162.352 E14.59436
G1 X107.916 Y161.759 E14.61273
G1 X108.669 Y161.23 E14.6311
G0 F6000 X108.914 Y161.548
G1 F1200 X109.697 Y161.098 E14.64912
G1 X110.517 Y160.719 E14.66715
G1 X111.367 Y160.414 E14.68517
G1 X112.24 Y160.186 E14.70318
G1 X113.149 Y160.033 E14.72157
G1 X114.266 Y159.897 E14.74403
G1 X116.841 Y159.547 E14.79589
G1 X117.609 Y159.422 E14.81141
G1 X118.613 Y159.272 E14.83167
G1 X119.78 Y159.166 E14.85506
G1 X120.145 Y159.156 E14.86234
G1 X120.679 Y159.15 E14.873
G1 X128.176 Y159.15 E15.02261
G1 X129.02 Y159.161 E15.03946
G1 X129.817 Y159.204 E15.05538
G1 X130.162 Y159.238 E15.0623
G1 X132.553 Y159.509 E15.11032
G1 X135.069 Y159.723 E15.16071
G1 X137.63 Y159.868 E15.2119
G1 X140.189 Y159.941 E15.26299
G1 X141.503 Y159.95 E15.28921
G1 X163.488 Y159.95 E15.72795
G1 X166.094 Y159.913 E15.77996
G1 X168.662 Y159.804 E15.83125
G1 X171.144 Y159.628 E15.88091
G1 X174.46 Y159.286 E15.94743
G1 X174.922 Y159.232 E15.95672
G1 X175.603 Y159.176 E15.97035
G1 X175.764 Y159.168 E15.97357
G1 X176.145 Y159.156 E15.98118
G1 X176.679 Y159.15 E15.99183
G1 X183.322 Y159.151 E16.1244
G1 X184.019 Y159.161 E16.13831
G1 X184.809 Y159.203 E16.1541
G1 X185.162 Y159.238 E16.16118
G1 X187.553 Y159.509 E16.2092
G1 X190.069 Y159.723 E16.25959
G1 X192.63 Y159.868 E16.31078
G1 X195.189 Y159.941 E16.36187
G1 X196.503 Y159.95 E16.38809
G1 X218.488 Y159.95 E16.82682
G1 X221.094 Y159.913 E16.87884
G1 X223.662 Y159.804 E16.93013
G1 X226.144 Y159.628 E16.97978
G1 X229.46 Y159.286 E17.04631
G1 X229.922 Y159.232 E17.05559
G1 X230.603 Y159.176 E17.06923
G1 X230.764 Y159.168 E17.07245
G1 X231.145 Y159.156 E17.08005
G1 X231.679 Y159.15 E17.09071
G1 X239.334 Y159.151 E17.24347
G1 X240.042 Y159.162 E17.2576
G1 X240.944 Y159.216 E17.27564
G1 X241.464 Y159.284 E17.2861
G1 X242.579 Y159.459 E17.30863
G1 X245.109 Y159.82 E17.35963
G1 X245.902 Y159.911 E17.37555
G1 X246.933 Y160.044 E17.3963
G1 X247.823 Y160.199 E17.41433
G1 X248.695 Y160.432 E17.43234
G1 X249.544 Y160.742 E17.45038
G1 X250.361 Y161.125 E17.46838
G1 X251.142 Y161.579 E17.48641
G1 X251.879 Y162.1 E17.50442
G1 X252.775 Y162.883 E17.52817
G1 X252.887 Y162.993 E17.5313
G1 X253.503 Y163.654 E17.54933
G1 X254.058 Y164.366 E17.56735
G1 X254.547 Y165.125 E17.58537
G1 X254.968 Y165.924 E17.60339
G1 X255.316 Y166.757 E17.62141
G1 X255.589 Y167.618 E17.63943
G1 X255.785 Y168.5 E17.65746
G1 X255.902 Y169.395 E17.67547
G1 X255.933 Y169.901 E17.68559
G1 X255.944 Y170.273 E17.69302
G1 X255.95 Y170.785 E17.70324
G1 X255.949 Y184.604 E17.97901
G1 X255.938 Y185.377 E17.99444
G1 X255.923 Y185.822 E18.00332
G1 X255.908 Y186.098 E18.00884
