;FLAVOR:Marlin
;TIME:4450
;Filament used: 3.73783m
;Layer height: 0.2
;MINX:103.25
;MINY:158.85
;MINZ:0.2
;MAXX:256.75
;MAXY:218.652
;MAXZ:31.2
;Generated with Creality Slicer 4.8.2-96
M140 S60
M105
M190 S60
M104 S200
M105
M109 S200
M82 ;absolute extrusion mode

G28 ;Home

G92 E0 ;Reset Extruder
G1 Z2.0 F3000 ;Move Z Axis up
G1 X10.1 Y20 Z0.28 F5000.0 ;Move to start position
G1 X10.1 Y200.0 Z0.28 F1500.0 E15 ;Draw the first line
G1 X10.4 Y200.0 Z0.28 F5000.0 ;Move to side a little
G1 X10.4 Y20 Z0.28 F1500.0 E30 ;Draw the second line
G92 E0 ;Reset Extruder
G1 Z2.0 F3000 ;Move Z Axis up

G92 E0
G92 E0
G1 F3600 E-5
;LAYER_COUNT:156
;LAYER:0
M107
G0 F6000 X110.018 Y161.799 Z0.2
;TYPE:SKIRT
G1 F3600 E0
G1 F1200 X110.557 Y161.439 E0.02156
G1 X110.989 Y161.168 E0.03852
G1 X111.679 Y160.769 E0.06503
G1 X111.892 Y160.656 E0.07305
G1 X112.533 Y160.342 E0.09679
G1 X112.693 Y160.27 E0.10263
G1 X113.284 Y160.024 E0.12392
G1 X113.863 Y159.803 E0.14453
G1 X114.972 Y159.446 E0.18328
G1 X115.297 Y159.36 E0.19446
G1 X116.303 Y159.144 E0.22868
G1 X116.849 Y159.053 E0.24709
G1 X117.886 Y158.93 E0.28183
G1 X118.512 Y158.886 E0.3027
G1 X118.883 Y158.866 E0.31506
G1 X119.347 Y158.853 E0.33049
G1 X119.775 Y158.85 E0.34473
G1 X240.224 Y158.852 E4.35088
G1 X241.053 Y158.864 E4.37846
G1 X241.555 Y158.883 E4.39516
G1 X241.721 Y158.893 E4.4007
G1 X242.422 Y158.958 E4.42411
G1 X242.983 Y159.028 E4.44291
G1 X244.101 Y159.226 E4.48068
G1 X244.693 Y159.363 E4.50089
G1 X245.848 Y159.698 E4.54089
G1 X246.165 Y159.809 E4.55206
G1 X247.04 Y160.158 E4.58339
G1 X247.614 Y160.416 E4.60432
G1 X248.489 Y160.857 E4.63691
G1 X248.603 Y160.921 E4.64126
G1 X249.04 Y161.18 E4.65816
G1 X249.258 Y161.316 E4.6667
G1 X249.823 Y161.693 E4.68929
G1 X250.21 Y161.969 E4.7051
G1 X251.055 Y162.637 E4.74093
G1 X251.518 Y163.041 E4.76137
G1 X252.148 Y163.636 E4.79019
G1 X252.239 Y163.729 E4.79452
G1 X252.671 Y164.196 E4.81568
G1 X252.901 Y164.46 E4.82732
G1 X253.228 Y164.853 E4.84432
G1 X253.335 Y164.988 E4.85005
G1 X253.672 Y165.437 E4.86873
G1 X253.801 Y165.618 E4.87612
G1 X254.161 Y166.157 E4.89768
G1 X254.432 Y166.589 E4.91464
G1 X254.831 Y167.279 E4.94115
G1 X254.944 Y167.492 E4.94917
G1 X255.261 Y168.138 E4.9731
G1 X255.332 Y168.296 E4.97886
G1 X255.576 Y168.885 E5.00007
G1 X255.798 Y169.467 E5.02079
G1 X256.152 Y170.565 E5.05916
G1 X256.238 Y170.889 E5.07031
G1 X256.454 Y171.886 E5.10424
G1 X256.544 Y172.421 E5.12228
G1 X256.669 Y173.471 E5.15745
G1 X256.714 Y174.108 E5.17869
G1 X256.734 Y174.481 E5.19111
G1 X256.74 Y174.645 E5.19657
G1 X256.747 Y174.946 E5.20659
G1 X256.75 Y175.274 E5.2175
G1 X256.749 Y188.694 E5.66385
G1 X256.739 Y189.42 E5.688
G1 X256.686 Y190.356 E5.71918
G1 X256.554 Y191.284 E5.75035
G1 X256.343 Y192.198 E5.78155
G1 X256.054 Y193.091 E5.81277
G1 X255.691 Y193.955 E5.84394
G1 X255.256 Y194.786 E5.87514
G1 X254.751 Y195.577 E5.90635
G1 X254.181 Y196.321 E5.93752
G1 X253.55 Y197.015 E5.96872
G1 X252.861 Y197.652 E5.99993
G1 X252.121 Y198.228 E6.03112
G1 X251.335 Y198.739 E6.0623
G1 X250.508 Y199.181 E6.09349
G1 X249.646 Y199.551 E6.12469
G1 X248.756 Y199.847 E6.15589
G1 X247.844 Y200.065 E6.18707
G1 X246.916 Y200.205 E6.21829
G1 X246.06 Y200.263 E6.24682
G1 X245.778 Y200.271 E6.25621
G1 X243.125 Y200.387 E6.34453
G1 X240.633 Y200.565 E6.42763
G1 X238.114 Y200.817 E6.51183
G1 X235.61 Y201.14 E6.5958
G1 X233.121 Y201.532 E6.6796
G1 X230.661 Y201.991 E6.76284
G1 X228.193 Y202.525 E6.84682
G1 X225.805 Y203.111 E6.9286
G1 X223.326 Y203.797 E7.01415
G1 X220.905 Y204.54 E7.09838
G1 X218.537 Y205.341 E7.18153
G1 X216.198 Y206.206 E7.26447
G1 X213.843 Y207.153 E7.3489
G1 X211.516 Y208.168 E7.43333
G1 X209.267 Y209.225 E7.51599
G1 X207.002 Y210.368 E7.60037
G1 X204.792 Y211.563 E7.68393
G1 X202.638 Y212.808 E7.76668
G1 X200.454 Y214.153 E7.85199
G1 X198.268 Y215.588 E7.93896
G1 X197.448 Y216.143 E7.9719
G1 X196.65 Y216.635 E8.00308
G1 X195.812 Y217.057 E8.03428
G1 X194.942 Y217.406 E8.06546
G1 X193.662 Y217.772 E8.10974
G1 X192.739 Y217.936 E8.14092
G1 X191.587 Y218.03 E8.17936
G1 X191.269 Y218.039 E8.18994
G1 X190.958 Y218.043 E8.20029
G1 X179.733 Y218.043 E8.57363
G1 X177.125 Y218.08 E8.66038
G1 X174.604 Y218.187 E8.74431
G1 X172.121 Y218.363 E8.8271
G1 X170.102 Y218.563 E8.89458
G1 X169.652 Y218.602 E8.90961
G1 X169.012 Y218.639 E8.93093
G1 X168.693 Y218.648 E8.94154
G1 X168.383 Y218.652 E8.95185
G1 X149.263 Y218.651 E9.58779
G1 X148.56 Y218.641 E9.61117
G1 X147.623 Y218.588 E9.64239
G1 X146.695 Y218.455 E9.67357
G1 X145.781 Y218.243 E9.70477
G1 X144.889 Y217.955 E9.73595
G1 X144.024 Y217.591 E9.76716
G1 X143.194 Y217.155 E9.79835
G1 X142.403 Y216.65 E9.82956
G1 X141.929 Y216.299 E9.84918
G1 X141.24 Y215.757 E9.87833
G1 X140.197 Y214.917 E9.92287
G1 X138.182 Y213.385 E10.00706
G1 X136.151 Y211.93 E10.09016
G1 X134.045 Y210.509 E10.17466
G1 X131.917 Y209.16 E10.25846
G1 X129.789 Y207.894 E10.34082
G1 X127.565 Y206.654 E10.42551
G1 X125.324 Y205.487 E10.50955
G1 X123.06 Y204.387 E10.59326
G1 X120.796 Y203.367 E10.67585
G1 X118.414 Y202.371 E10.76173
G1 X116.114 Y201.488 E10.84367
G1 X113.73 Y200.648 E10.92774
G1 X111.318 Y199.874 E11.01199
G1 X111.035 Y199.787 E11.02184
G1 X110.151 Y199.474 E11.05303
G1 X109.296 Y199.087 E11.08425
G1 X108.478 Y198.628 E11.11544
G1 X107.702 Y198.102 E11.14662
G1 X106.973 Y197.511 E11.17784
G1 X106.298 Y196.861 E11.209
G1 X105.68 Y196.155 E11.24021
G1 X105.125 Y195.399 E11.2714
G1 X104.636 Y194.599 E11.30259
G1 X104.217 Y193.76 E11.33378
G1 X103.871 Y192.888 E11.36498
G1 X103.601 Y191.99 E11.39617
G1 X103.408 Y191.072 E11.42737
G1 X103.294 Y190.141 E11.45857
G1 X103.262 Y189.546 E11.47839
G1 X103.253 Y189.188 E11.4903
G1 X103.25 Y188.911 E11.49951
G1 X103.252 Y175.374 E11.94975
G1 X103.264 Y174.54 E11.9775
G1 X103.285 Y174.003 E11.99537
G1 X103.295 Y173.845 E12.00064
G1 X103.358 Y173.178 E12.02292
G1 X103.428 Y172.617 E12.04172
G1 X103.626 Y171.499 E12.07949
G1 X103.763 Y170.907 E12.0997
G1 X104.095 Y169.76 E12.13941
G1 X104.205 Y169.445 E12.15051
G1 X104.562 Y168.55 E12.18256
G1 X104.824 Y167.969 E12.20376
G1 X105.249 Y167.127 E12.23513
G1 X105.311 Y167.016 E12.23936
G1 X105.586 Y166.55 E12.25735
G1 X105.721 Y166.334 E12.26582
G1 X106.093 Y165.777 E12.2881
G1 X106.369 Y165.39 E12.30391
G1 X107.037 Y164.545 E12.33974
G1 X107.441 Y164.082 E12.36017
G1 X108.071 Y163.417 E12.39064
G1 X108.17 Y163.321 E12.39523
G1 X108.598 Y162.928 E12.41456
G1 X108.856 Y162.703 E12.42594
G1 X109.253 Y162.372 E12.44313
G1 X109.388 Y162.265 E12.44886
G1 X109.837 Y161.928 E12.46753
G1 X110.018 Y161.799 E12.47493
G0 F6000 X110.25 Y162.125
G1 F1200 X110.769 Y161.778 E12.49569
G1 X111.201 Y161.507 E12.51265
G1 X111.866 Y161.122 E12.53821
G1 X112.079 Y161.009 E12.54623
G1 X112.697 Y160.707 E12.56911
G1 X112.857 Y160.635 E12.57494
G1 X113.427 Y160.398 E12.59548
G1 X114.006 Y160.177 E12.61609
G1 X115.074 Y159.833 E12.65341
G1 X115.399 Y159.747 E12.66459
G1 X116.368 Y159.538 E12.69756
G1 X116.914 Y159.447 E12.71597
G1 X117.914 Y159.329 E12.74946
G1 X118.54 Y159.285 E12.77033
G1 X118.898 Y159.266 E12.78226
G1 X119.351 Y159.253 E12.79733
G1 X119.775 Y159.25 E12.81143
G1 X240.218 Y159.252 E16.81738
G1 X241.047 Y159.264 E16.84496
G1 X241.531 Y159.282 E16.86107
G1 X241.697 Y159.292 E16.8666
G1 X242.372 Y159.355 E16.88915
G1 X242.933 Y159.425 E16.90795
G1 X244.011 Y159.616 E16.94436
G1 X244.603 Y159.753 E16.96457
G1 X245.716 Y160.076 E17.00312
G1 X246.033 Y160.187 E17.01429
G1 X246.876 Y160.523 E17.04447
G1 X247.45 Y160.781 E17.06541
G1 X248.293 Y161.206 E17.09681
G1 X248.407 Y161.27 E17.10115
G1 X248.829 Y161.52 E17.11747
G1 X249.047 Y161.656 E17.12601
G1 X249.591 Y162.019 E17.14777
G1 X249.978 Y162.295 E17.16357
G1 X250.792 Y162.938 E17.19808
G1 X251.255 Y163.342 E17.21851
G1 X251.862 Y163.916 E17.2463
G1 X251.953 Y164.009 E17.25063
G1 X252.369 Y164.459 E17.27101
G1 X252.599 Y164.723 E17.28266
G1 X252.914 Y165.102 E17.29905
G1 X253.021 Y165.237 E17.30478
G1 X253.346 Y165.669 E17.32276
G1 X253.475 Y165.85 E17.33015
G1 X253.822 Y166.369 E17.35091
G1 X254.093 Y166.801 E17.36788
G1 X254.478 Y167.466 E17.39343
G1 X254.591 Y167.679 E17.40145
G1 X254.896 Y168.302 E17.42452
G1 X254.967 Y168.46 E17.43029
G1 X255.202 Y169.027 E17.4507
G1 X255.424 Y169.609 E17.47142
G1 X255.765 Y170.668 E17.50842
G1 X255.851 Y170.992 E17.51957
G1 X256.059 Y171.953 E17.55227
G1 X256.149 Y172.488 E17.57032
G1 X256.27 Y173.499 E17.60418
G1 X256.315 Y174.136 E17.62542
G1 X256.334 Y174.495 E17.63738
G1 X256.347 Y174.95 E17.65252
G1 X256.35 Y175.278 E17.66343
G1 X256.349 Y188.688 E18.10945
G1 X256.339 Y189.414 E18.1336
G1 X256.286 Y190.333 E18.16421
G1 X256.154 Y191.244 E18.19483
G1 X255.943 Y192.14 E18.22545
G1 X255.656 Y193.015 E18.25607
G1 X255.293 Y193.861 E18.28669
G1 X254.859 Y194.673 E18.31732
G1 X254.355 Y195.444 E18.34795
G1 X253.787 Y196.168 E18.37856
G1 X253.158 Y196.84 E18.40917
G1 X252.473 Y197.455 E18.43979
G1 X251.737 Y198.009 E18.47043
G1 X250.956 Y198.496 E18.50104
G1 X250.135 Y198.914 E18.53169
G1 X249.282 Y199.259 E18.56229
G1 X248.402 Y199.528 E18.5929
G1 X247.501 Y199.721 E18.62354
G1 X246.588 Y199.834 E18.65414
G1 X246.049 Y199.864 E18.6721
G1 X245.68 Y199.875 E18.68437
G1 X243.113 Y199.986 E18.76983
G1 X240.6 Y200.166 E18.85363
G1 X238.06 Y200.42 E18.93853
G1 X235.568 Y200.741 E19.0221
G1 X233.057 Y201.137 E19.10665
G1 X230.568 Y201.602 E19.19087
G1 X228.126 Y202.13 E19.27396
G1 X225.677 Y202.732 E19.35784
G1 X223.198 Y203.417 E19.44338
G1 X220.807 Y204.151 E19.52657
G1 X218.407 Y204.962 E19.61083
G1 X216.046 Y205.835 E19.69455
G1 X213.682 Y206.787 E19.77932
G1 X211.365 Y207.797 E19.86338
G1 X209.081 Y208.87 E19.94732
G1 X206.825 Y210.009 E20.03137
G1 X204.581 Y211.222 E20.11621
G1 X202.433 Y212.463 E20.19872
G1 X200.255 Y213.805 E20.28381
G1 X198.063 Y215.245 E20.37104
G1 X197.224 Y215.812 E20.40472
G1 X196.44 Y216.294 E20.43533
G1 X195.617 Y216.706 E20.46594
G1 X194.761 Y217.046 E20.49658
G1 X193.575 Y217.382 E20.53758
G1 X192.669 Y217.542 E20.56818
G1 X191.576 Y217.63 E20.60465
G1 X191.258 Y217.639 E20.61523
G1 X190.958 Y217.643 E20.62521
G1 X179.727 Y217.643 E20.99875
G1 X177.102 Y217.68 E21.08607
G1 X174.594 Y217.787 E21.16956
G1 X172.09 Y217.964 E21.25305
G1 X170.067 Y218.164 E21.32067
G1 X169.617 Y218.203 E21.33569
G1 X169.001 Y218.239 E21.35621
G1 X168.682 Y218.248 E21.36683
G1 X168.383 Y218.252 E21.37677
G1 X149.268 Y218.251 E22.01254
G1 X148.565 Y218.241 E22.03592
G1 X147.646 Y218.188 E22.06654
G1 X146.735 Y218.055 E22.09716
G1 X145.839 Y217.844 E22.12778
G1 X144.965 Y217.556 E22.15838
G1 X144.118 Y217.193 E22.18903
G1 X143.307 Y216.758 E22.21964
G1 X142.176 Y215.984 E22.26523
G1 X141.491 Y215.446 E22.2942
G1 X140.423 Y214.585 E22.33982
G1 X138.435 Y213.074 E22.42288
G1 X136.362 Y211.589 E22.50769
G1 X134.278 Y210.183 E22.5913
G1 X132.163 Y208.842 E22.6746
G1 X129.941 Y207.52 E22.76059
G1 X127.78 Y206.315 E22.84289
G1 X125.49 Y205.123 E22.92875
G1 X123.262 Y204.04 E23.01115
G1 X120.935 Y202.991 E23.09604
G1 X118.574 Y202.004 E23.18116
G1 X116.241 Y201.109 E23.26427
G1 X113.837 Y200.262 E23.34904
G1 X111.43 Y199.489 E23.43313
G1 X111.152 Y199.404 E23.44279
G1 X110.284 Y199.097 E23.47342
G1 X109.447 Y198.715 E23.50402
G1 X108.645 Y198.261 E23.53467
G1 X107.886 Y197.74 E23.56529
G1 X107.175 Y197.155 E23.59591
G1 X106.518 Y196.511 E23.62651
G1 X105.919 Y195.812 E23.65713
G1 X105.382 Y195.064 E23.68776
G1 X104.913 Y194.271 E23.7184
G1 X104.514 Y193.442 E23.749
G1 X104.189 Y192.58 E23.77964
G1 X103.94 Y191.694 E23.81025
G1 X103.768 Y190.79 E23.84085
G1 X103.662 Y189.536 E23.88271
G1 X103.653 Y189.178 E23.89462
G1 X103.65 Y188.911 E23.9035
G1 X103.652 Y175.379 E24.35358
G1 X103.664 Y174.545 E24.38132
G1 X103.684 Y174.028 E24.39853
G1 X103.694 Y173.87 E24.4038
G1 X103.755 Y173.228 E24.42524
G1 X103.825 Y172.667 E24.44405
G1 X104.016 Y171.589 E24.48046
G1 X104.153 Y170.997 E24.50067
G1 X104.473 Y169.892 E24.53893
G1 X104.583 Y169.577 E24.55003
G1 X104.927 Y168.715 E24.5809
G1 X105.189 Y168.134 E24.6021
G1 X105.598 Y167.322 E24.63234
G1 X105.66 Y167.211 E24.63657
G1 X105.925 Y166.762 E24.65391
G1 X106.06 Y166.546 E24.66238
G1 X106.419 Y166.009 E24.68386
G1 X106.695 Y165.622 E24.69967
G1 X107.338 Y164.808 E24.73418
G1 X107.742 Y164.345 E24.75461
G1 X108.35 Y163.704 E24.784
G1 X108.449 Y163.608 E24.78858
G1 X108.861 Y163.229 E24.8072
G1 X109.119 Y163.004 E24.81859
G1 X109.502 Y162.686 E24.83515
G1 X109.637 Y162.579 E24.84088
G1 X110.069 Y162.254 E24.85886
G1 X110.25 Y162.125 E24.86625
G0 F6000 X110.482 Y162.451
G1 F1200 X110.982 Y162.116 E24.88627
G1 X111.414 Y161.845 E24.90323
G1 X112.054 Y161.475 E24.92782
G1 X112.267 Y161.362 E24.93584
G1 X112.861 Y161.071 E24.95784
G1 X113.021 Y160.999 E24.96367
G1 X113.57 Y160.772 E24.98343
G1 X114.149 Y160.551 E25.00404
G1 X115.177 Y160.219 E25.03997
G1 X115.502 Y160.133 E25.05116
G1 X116.434 Y159.933 E25.08286
G1 X116.98 Y159.842 E25.10127
G1 X117.942 Y159.728 E25.13349
G1 X118.568 Y159.684 E25.15436
G1 X118.912 Y159.666 E25.16582
G1 X119.354 Y159.653 E25.18053
G1 X119.775 Y159.65 E25.19453
G1 X240.213 Y159.652 E29.20031
G1 X241.042 Y159.664 E29.22789
G1 X241.507 Y159.681 E29.24337
G1 X241.673 Y159.691 E29.2489
G1 X242.323 Y159.751 E29.27061
G1 X242.884 Y159.821 E29.28941
G1 X243.921 Y160.006 E29.32445
G1 X244.513 Y160.143 E29.34466
G1 X245.584 Y160.453 E29.38174
G1 X245.901 Y160.564 E29.39291
G1 X246.712 Y160.888 E29.42196
G1 X247.286 Y161.146 E29.44289
G1 X248.097 Y161.555 E29.4731
G1 X248.211 Y161.619 E29.47745
G1 X248.617 Y161.859 E29.49314
G1 X248.835 Y161.995 E29.50168
G1 X249.359 Y162.345 E29.52264
G1 X249.746 Y162.621 E29.53845
G1 X250.529 Y163.239 E29.57163
G1 X250.992 Y163.643 E29.59206
G1 X251.576 Y164.195 E29.61879
G1 X251.667 Y164.288 E29.62312
G1 X252.068 Y164.722 E29.64277
G1 X252.298 Y164.986 E29.65442
G1 X252.601 Y165.35 E29.67017
G1 X252.708 Y165.485 E29.6759
G1 X253.02 Y165.901 E29.6932
G1 X253.149 Y166.082 E29.70059
G1 X253.484 Y166.582 E29.72061
G1 X253.755 Y167.014 E29.73757
G1 X254.125 Y167.654 E29.76216
G1 X254.238 Y167.867 E29.77017
G1 X254.531 Y168.466 E29.79235
G1 X254.602 Y168.624 E29.79811
G1 X254.828 Y169.17 E29.81777
G1 X255.05 Y169.752 E29.83849
G1 X255.379 Y170.77 E29.87407
G1 X255.465 Y171.094 E29.88522
G1 X255.665 Y172.019 E29.9167
G1 X255.755 Y172.554 E29.93474
G1 X255.871 Y173.527 E29.96733
G1 X255.916 Y174.164 E29.98857
G1 X255.934 Y174.51 E30.00009
G1 X255.947 Y174.954 E30.01487
G1 X255.95 Y175.282 E30.02578
G1 X255.949 Y188.682 E30.47146
G1 X255.939 Y189.408 E30.49561
G1 X255.887 Y190.31 E30.52566
G1 X255.755 Y191.203 E30.55569
G1 X255.544 Y192.082 E30.58575
G1 X255.257 Y192.938 E30.61578
G1 X254.895 Y193.765 E30.64581
G1 X254.461 Y194.557 E30.67585
G1 X253.959 Y195.308 E30.70589
G1 X253.393 Y196.012 E30.73593
G1 X252.766 Y196.662 E30.76597
G1 X252.085 Y197.255 E30.79601
G1 X251.353 Y197.784 E30.82605
G1 X250.578 Y198.248 E30.85609
G1 X249.765 Y198.64 E30.88611
G1 X248.92 Y198.96 E30.91616
G1 X248.05 Y199.203 E30.9462
G1 X247.163 Y199.368 E30.97621
G1 X246.037 Y199.464 E31.0138
G1 X245.653 Y199.475 E31.02658
G1 X243.103 Y199.586 E31.11147
G1 X240.565 Y199.768 E31.1961
G1 X238.006 Y200.023 E31.28164
G1 X235.521 Y200.344 E31.36497
G1 X232.993 Y200.742 E31.45009
G1 X230.488 Y201.21 E31.53485
G1 X228.018 Y201.744 E31.6189
G1 X225.571 Y202.345 E31.70271
G1 X223.121 Y203.022 E31.78725
G1 X220.667 Y203.776 E31.87263
G1 X218.288 Y204.58 E31.95616
G1 X215.864 Y205.477 E32.04212
G1 X213.539 Y206.412 E32.12547
G1 X211.214 Y207.426 E32.20983
G1 X208.91 Y208.509 E32.29451
G1 X206.633 Y209.658 E32.37934
G1 X204.397 Y210.867 E32.46388
G1 X202.229 Y212.119 E32.54715
G1 X200.047 Y213.464 E32.6324
G1 X197.767 Y214.961 E32.72312
G1 X197 Y215.48 E32.75392
G1 X196.23 Y215.953 E32.78398
G1 X195.422 Y216.355 E32.814
G1 X194.581 Y216.685 E32.84405
G1 X193.489 Y216.991 E32.88176
G1 X192.599 Y217.148 E32.91182
G1 X191.565 Y217.23 E32.94632
G1 X191.247 Y217.239 E32.9569
G1 X190.958 Y217.243 E32.96652
G1 X179.721 Y217.243 E33.34026
G1 X177.115 Y217.28 E33.42694
G1 X174.55 Y217.389 E33.51233
G1 X172.055 Y217.566 E33.59553
G1 X170.033 Y217.766 E33.66311
G1 X169.583 Y217.805 E33.67813
