;FLAVOR:Marlin
;TIME:7018
;Filament used: 6.19476m
;Layer height: 0.2
;MINX:130.45
;MINY:150.5
;MINZ:0.2
;MAXX:227.55
;MAXY:257.499
;MAXZ:14.8
;Generated with Creality Slicer 4.8.2-96
M140 S60
M105
M190 S60
M104 S200
M105
M109 S200
M82 ;absolute extrusion mode

G28 ;Home

G92 E0 ;Reset Extruder
G1 Z2.0 F3000 ;Move Z Axis up
G1 X10.1 Y20 Z0.28 F5000.0 ;Move to start position
G1 X10.1 Y200.0 Z0.28 F1500.0 E15 ;Draw the first line
G1 X10.4 Y200.0 Z0.28 F5000.0 ;Move to side a little
G1 X10.4 Y20 Z0.28 F1500.0 E30 ;Draw the second line
G92 E0 ;Reset Extruder
G1 Z2.0 F3000 ;Move Z Axis up

G92 E0
G92 E0
G1 F3600 E-5
;LAYER_COUNT:74
;LAYER:0
M107
G0 F6000 X137.607 Y154.755 Z0.2
;TYPE:SKIRT
G1 F3600 E0
G1 F1200 X138.208 Y154.225 E0.02665
G1 X138.423 Y154.049 E0.03589
G1 X138.817 Y153.742 E0.05251
G1 X138.982 Y153.619 E0.05935
G1 X139.493 Y153.26 E0.08012
G1 X139.77 Y153.077 E0.09116
G1 X140.31 Y152.742 E0.1123
G1 X140.577 Y152.587 E0.12257
G1 X141.132 Y152.286 E0.14357
G1 X141.292 Y152.205 E0.14953
G1 X141.871 Y151.932 E0.17082
G1 X142.287 Y151.751 E0.18591
G1 X143.026 Y151.461 E0.21232
G1 X143.262 Y151.378 E0.22064
G1 X143.751 Y151.219 E0.23774
G1 X143.931 Y151.165 E0.24399
G1 X144.525 Y151.005 E0.26445
G1 X144.9 Y150.915 E0.27728
G1 X145.335 Y150.819 E0.29209
G1 X145.972 Y150.706 E0.31361
G1 X146.195 Y150.673 E0.32111
G1 X146.523 Y150.629 E0.33212
G1 X146.702 Y150.608 E0.33811
G1 X147.363 Y150.551 E0.36018
G1 X147.646 Y150.535 E0.3696
G1 X147.967 Y150.521 E0.38029
G1 X148.553 Y150.505 E0.39979
G1 X148.853 Y150.501 E0.40977
G1 X210.535 Y150.5 E2.46132
G1 X210.766 Y150.502 E2.469
G1 X212.196 Y150.532 E2.51658
G1 X213.208 Y150.6 E2.55031
G1 X213.551 Y150.639 E2.56179
G1 X214.038 Y150.706 E2.57814
G1 X214.567 Y150.799 E2.59601
G1 X214.825 Y150.851 E2.60476
G1 X215.32 Y150.962 E2.62163
G1 X215.44 Y150.992 E2.62575
G1 X215.895 Y151.117 E2.64144
G1 X216.28 Y151.231 E2.6548
G1 X216.999 Y151.471 E2.68001
G1 X217.278 Y151.575 E2.68991
G1 X217.761 Y151.768 E2.70721
G1 X217.913 Y151.833 E2.71271
G1 X218.497 Y152.103 E2.73411
G1 X218.88 Y152.294 E2.74834
G1 X219.556 Y152.661 E2.77393
G1 X219.78 Y152.793 E2.78257
G1 X220.215 Y153.063 E2.7996
G1 X220.371 Y153.165 E2.8058
G1 X220.889 Y153.526 E2.8268
G1 X221.23 Y153.778 E2.8409
G1 X221.858 Y154.278 E2.8676
G1 X222.056 Y154.448 E2.87628
G1 X222.45 Y154.804 E2.89394
G1 X222.58 Y154.927 E2.8999
G1 X223.003 Y155.349 E2.91977
G1 X223.295 Y155.657 E2.93389
G1 X223.809 Y156.239 E2.95971
G1 X223.98 Y156.447 E2.96867
G1 X224.277 Y156.825 E2.98466
G1 X224.404 Y156.994 E2.99169
G1 X224.798 Y157.553 E3.01443
G1 X224.983 Y157.834 E3.02562
G1 X225.302 Y158.349 E3.04577
G1 X225.458 Y158.617 E3.05609
G1 X225.752 Y159.157 E3.07654
G1 X225.832 Y159.314 E3.0824
G1 X226.125 Y159.937 E3.1053
G1 X226.306 Y160.355 E3.12045
G1 X226.584 Y161.063 E3.14574
G1 X226.667 Y161.298 E3.15403
G1 X226.831 Y161.8 E3.1716
G1 X226.885 Y161.98 E3.17785
G1 X227.047 Y162.58 E3.19852
G1 X227.137 Y162.956 E3.21138
G1 X227.231 Y163.385 E3.22599
G1 X227.344 Y164.022 E3.2475
G1 X227.377 Y164.245 E3.255
G1 X227.419 Y164.559 E3.26554
G1 X227.44 Y164.736 E3.27147
G1 X227.5 Y165.415 E3.29414
G1 X227.516 Y165.7 E3.30363
G1 X227.528 Y165.981 E3.31299
G1 X227.544 Y166.505 E3.33042
G1 X227.549 Y166.841 E3.3416
G1 X227.55 Y192.438 E4.19296
G1 X227.548 Y192.667 E4.20058
G1 X227.517 Y194.155 E4.25008
G1 X227.448 Y195.177 E4.28415
G1 X227.41 Y195.509 E4.29526
G1 X227.346 Y195.978 E4.31101
G1 X227.302 Y196.253 E4.32027
G1 X227.181 Y196.942 E4.34354
G1 X226.887 Y198.487 E4.39584
G1 X226.491 Y200.938 E4.47842
G1 X226.158 Y203.455 E4.56287
G1 X225.9 Y205.938 E4.6459
G1 X225.711 Y208.452 E4.72975
G1 X225.594 Y210.948 E4.81286
G1 X225.548 Y214.7 E4.93766
G1 X225.55 Y240.791 E5.80545
G1 X225.537 Y241.794 E5.83881
G1 X225.52 Y242.269 E5.85462
G1 X225.505 Y242.53 E5.86332
G1 X225.452 Y243.15 E5.88401
G1 X225.418 Y243.447 E5.89395
G1 X225.357 Y243.902 E5.90922
G1 X225.255 Y244.492 E5.92914
G1 X225.204 Y244.747 E5.93779
G1 X225.115 Y245.154 E5.95164
G1 X225.086 Y245.275 E5.95578
G1 X224.944 Y245.807 E5.9741
G1 X224.834 Y246.182 E5.98709
G1 X224.607 Y246.871 E6.01122
G1 X224.5 Y247.163 E6.02157
G1 X224.279 Y247.719 E6.04147
G1 X224.209 Y247.882 E6.04737
G1 X223.952 Y248.438 E6.06774
G1 X223.779 Y248.786 E6.08066
G1 X223.625 Y249.085 E6.09185
G1 X223.259 Y249.727 E6.11643
G1 X223.125 Y249.945 E6.12494
G1 X222.884 Y250.322 E6.13982
G1 X222.504 Y250.869 E6.16198
G1 X222.309 Y251.132 E6.17287
G1 X222.1 Y251.405 E6.1843
G1 X221.615 Y251.99 E6.20958
G1 X221.429 Y252.199 E6.21888
G1 X221.132 Y252.521 E6.23345
G1 X220.684 Y252.972 E6.25459
G1 X220.463 Y253.182 E6.26473
G1 X219.961 Y253.631 E6.28713
G1 X219.711 Y253.841 E6.29799
G1 X219.236 Y254.218 E6.31816
G1 X219.068 Y254.344 E6.32515
G1 X218.557 Y254.705 E6.34596
G1 X218.226 Y254.925 E6.35918
G1 X217.787 Y255.202 E6.37644
G1 X217.354 Y255.453 E6.39309
G1 X217.135 Y255.573 E6.40139
G1 X216.853 Y255.722 E6.412
G1 X216.714 Y255.793 E6.41719
G1 X216.071 Y256.096 E6.44083
G1 X215.763 Y256.229 E6.45199
G1 X215.205 Y256.452 E6.47198
G1 X214.901 Y256.564 E6.48275
G1 X214.269 Y256.775 E6.50492
G1 X214.083 Y256.831 E6.51138
G1 X213.469 Y256.997 E6.53253
G1 X213.013 Y257.106 E6.54813
G1 X212.06 Y257.289 E6.5804
G1 X211.809 Y257.326 E6.58884
G1 X211.518 Y257.365 E6.59861
G1 X211.335 Y257.387 E6.60474
G1 X210.689 Y257.446 E6.62631
G1 X210.376 Y257.465 E6.63674
G1 X210.058 Y257.479 E6.64733
G1 X209.648 Y257.492 E6.66097
G1 X209.299 Y257.498 E6.67258
G1 X147.002 Y257.499 E8.74459
G1 X146.158 Y257.487 E8.77266
G1 X145.688 Y257.47 E8.7883
G1 X145.425 Y257.455 E8.79707
G1 X144.8 Y257.402 E8.81793
G1 X144.503 Y257.368 E8.82787
G1 X144.048 Y257.307 E8.84314
G1 X143.458 Y257.205 E8.86305
G1 X143.203 Y257.154 E8.8717
G1 X142.75 Y257.054 E8.88713
G1 X142.619 Y257.022 E8.89162
G1 X142.135 Y256.892 E8.90829
G1 X141.77 Y256.785 E8.92094
G1 X141.058 Y256.55 E8.94588
G1 X140.757 Y256.439 E8.95655
G1 X140.23 Y256.229 E8.97541
G1 X140.076 Y256.163 E8.98099
G1 X139.512 Y255.902 E9.00166
G1 X139.164 Y255.729 E9.01458
G1 X138.826 Y255.554 E9.02724
G1 X138.187 Y255.187 E9.05175
G1 X137.775 Y254.929 E9.06792
G1 X137.647 Y254.846 E9.07299
G1 X137.09 Y254.46 E9.09553
G1 X136.821 Y254.261 E9.10666
G1 X136.505 Y254.02 E9.11988
G1 X135.957 Y253.562 E9.14363
G1 X135.747 Y253.375 E9.15299
G1 X135.43 Y253.083 E9.16732
G1 X134.984 Y252.64 E9.18823
G1 X134.766 Y252.411 E9.19875
G1 X134.303 Y251.893 E9.22185
G1 X134.101 Y251.652 E9.23231
G1 X133.706 Y251.152 E9.25351
G1 X133.581 Y250.984 E9.26047
G1 X133.245 Y250.507 E9.27988
G1 X133.025 Y250.176 E9.29309
G1 X132.77 Y249.774 E9.30893
G1 X132.471 Y249.257 E9.32879
G1 X132.227 Y248.802 E9.34596
G1 X132.155 Y248.661 E9.35123
G1 X131.845 Y247.999 E9.37554
G1 X131.705 Y247.673 E9.38734
G1 X131.483 Y247.115 E9.40732
G1 X131.379 Y246.831 E9.41738
G1 X131.175 Y246.219 E9.43883
G1 X131.119 Y246.033 E9.44529
G1 X130.953 Y245.419 E9.46645
G1 X130.844 Y244.963 E9.48204
G1 X130.658 Y243.989 E9.51502
G1 X130.618 Y243.714 E9.52427
G1 X130.562 Y243.277 E9.53892
G1 X130.504 Y242.639 E9.56023
G1 X130.485 Y242.326 E9.57066
G1 X130.471 Y242.008 E9.58124
G1 X130.458 Y241.598 E9.59489
G1 X130.452 Y241.252 E9.6064
G1 X130.451 Y234.559 E9.82901
G1 X130.461 Y233.846 E9.85272
G1 X130.488 Y233.222 E9.8735
G1 X130.586 Y231.851 E9.91921
G1 X130.613 Y231.534 E9.9298
G1 X130.755 Y229.005 E10.01404
G1 X130.826 Y226.484 E10.09792
G1 X130.824 Y223.959 E10.18191
G1 X130.753 Y221.469 E10.26476
G1 X130.607 Y218.918 E10.34974
G1 X130.503 Y217.629 E10.39276
G1 X130.482 Y217.299 E10.40375
G1 X130.466 Y216.959 E10.41507
G1 X130.456 Y216.582 E10.42762
G1 X130.45 Y216.039 E10.44568
G1 X130.451 Y215.042 E10.47884
G1 X130.463 Y214.206 E10.50665
G1 X130.48 Y213.738 E10.52222
G1 X130.495 Y213.475 E10.53099
G1 X130.548 Y212.851 E10.55181
G1 X130.583 Y212.545 E10.56206
G1 X130.625 Y212.219 E10.57299
G1 X130.647 Y212.067 E10.5781
G1 X130.693 Y211.778 E10.58783
G1 X130.767 Y211.359 E10.60198
G1 X131.142 Y209.369 E10.66934
G1 X131.54 Y206.864 E10.7537
G1 X131.865 Y204.357 E10.83778
G1 X132.121 Y201.843 E10.92183
G1 X132.302 Y199.348 E11.00503
G1 X132.413 Y196.853 E11.0881
G1 X132.452 Y193.354 E11.20448
G1 X132.45 Y167.562 E12.06233
G1 X132.452 Y167.333 E12.06994
G1 X132.483 Y165.845 E12.11944
G1 X132.552 Y164.823 E12.15351
G1 X132.59 Y164.491 E12.16463
G1 X132.656 Y164.012 E12.18071
G1 X132.749 Y163.483 E12.19857
G1 X132.801 Y163.225 E12.20733
G1 X132.912 Y162.73 E12.2242
G1 X132.942 Y162.61 E12.22831
G1 X133.067 Y162.155 E12.24401
G1 X133.181 Y161.77 E12.25736
G1 X133.421 Y161.051 E12.28257
G1 X133.525 Y160.772 E12.29248
G1 X133.718 Y160.289 E12.30978
G1 X133.783 Y160.137 E12.31528
G1 X134.053 Y159.553 E12.33668
G1 X134.244 Y159.17 E12.35091
G1 X134.626 Y158.469 E12.37746
G1 X134.76 Y158.243 E12.3862
G1 X134.969 Y157.905 E12.39942
G1 X135.068 Y157.751 E12.40551
G1 X135.487 Y157.145 E12.43001
G1 X135.74 Y156.804 E12.44413
G1 X136.256 Y156.16 E12.47158
G1 X136.436 Y155.952 E12.48073
G1 X136.746 Y155.609 E12.49611
G1 X136.859 Y155.489 E12.50159
G1 X137.298 Y155.048 E12.52229
G1 X137.607 Y154.755 E12.53645
G0 F6000 X137.882 Y155.045
G1 F1200 X138.462 Y154.535 E12.56214
G1 X138.677 Y154.359 E12.57138
G1 X139.056 Y154.062 E12.58739
G1 X139.221 Y153.939 E12.59424
G1 X139.713 Y153.594 E12.61423
G1 X139.99 Y153.411 E12.62527
G1 X140.511 Y153.088 E12.64566
G1 X140.778 Y152.933 E12.65592
G1 X141.312 Y152.643 E12.67614
G1 X141.472 Y152.562 E12.6821
G1 X142.031 Y152.299 E12.70265
G1 X142.447 Y152.118 E12.71774
G1 X143.159 Y151.838 E12.74318
G1 X143.395 Y151.755 E12.7515
G1 X143.866 Y151.602 E12.76797
G1 X144.046 Y151.548 E12.77423
G1 X144.618 Y151.394 E12.79393
G1 X144.993 Y151.304 E12.80675
G1 X145.416 Y151.211 E12.82116
G1 X146.03 Y151.101 E12.84191
G1 X146.253 Y151.068 E12.8494
G1 X146.57 Y151.026 E12.86004
G1 X146.749 Y151.005 E12.86603
G1 X147.386 Y150.95 E12.8873
G1 X147.669 Y150.934 E12.89673
G1 X147.978 Y150.921 E12.90701
G1 X148.564 Y150.905 E12.92651
G1 X148.853 Y150.901 E12.93612
G1 X210.535 Y150.9 E14.98768
G1 X210.757 Y150.902 E14.99506
G1 X212.187 Y150.932 E15.04263
G1 X213.163 Y150.998 E15.07517
G1 X213.506 Y151.037 E15.08665
G1 X213.978 Y151.101 E15.10249
G1 X214.488 Y151.191 E15.11972
G1 X214.746 Y151.243 E15.12847
G1 X215.223 Y151.35 E15.14473
G1 X215.343 Y151.38 E15.14884
G1 X215.782 Y151.5 E15.16398
G1 X216.167 Y151.614 E15.17734
G1 X216.859 Y151.846 E15.20161
G1 X217.138 Y151.95 E15.21151
G1 X217.604 Y152.136 E15.2282
G1 X217.756 Y152.201 E15.2337
G1 X218.319 Y152.461 E15.25433
G1 X218.702 Y152.652 E15.26856
G1 X219.353 Y153.006 E15.29321
G1 X219.577 Y153.138 E15.30186
G1 X219.996 Y153.398 E15.31826
G1 X220.152 Y153.5 E15.32446
G1 X220.651 Y153.847 E15.34467
G1 X220.992 Y154.099 E15.35877
G1 X221.597 Y154.582 E15.38452
G1 X221.795 Y154.752 E15.3932
G1 X222.175 Y155.094 E15.41021
G1 X222.305 Y155.217 E15.41616
G1 X222.712 Y155.624 E15.4353
G1 X223.004 Y155.932 E15.44942
G1 X223.5 Y156.493 E15.47432
G1 X223.671 Y156.701 E15.48328
G1 X223.957 Y157.065 E15.49868
G1 X224.084 Y157.234 E15.50571
G1 X224.464 Y157.773 E15.52764
G1 X224.649 Y158.054 E15.53883
G1 X224.956 Y158.55 E15.55823
G1 X225.112 Y158.818 E15.56855
G1 X225.396 Y159.338 E15.58825
G1 X225.476 Y159.495 E15.59412
G1 X225.758 Y160.096 E15.6162
G1 X225.939 Y160.514 E15.63135
G1 X226.207 Y161.196 E15.65572
G1 X226.29 Y161.431 E15.66401
G1 X226.448 Y161.915 E15.68094
G1 X226.502 Y162.095 E15.68719
G1 X226.658 Y162.673 E15.7071
G1 X226.748 Y163.049 E15.71996
G1 X226.839 Y163.466 E15.73416
G1 X226.949 Y164.08 E15.75491
G1 X226.982 Y164.303 E15.7624
G1 X227.022 Y164.606 E15.77257
G1 X227.043 Y164.783 E15.7785
G1 X227.1 Y165.438 E15.80036
G1 X227.116 Y165.723 E15.80986
G1 X227.128 Y165.993 E15.81885
G1 X227.144 Y166.517 E15.83628
G1 X227.149 Y166.841 E15.84706
G1 X227.15 Y192.438 E16.69842
G1 X227.148 Y192.659 E16.70577
G1 X227.117 Y194.147 E16.75527
G1 X227.05 Y195.131 E16.78808
G1 X227.012 Y195.463 E16.79919
G1 X226.967 Y195.811 E16.81086
G1 X226.908 Y196.184 E16.82342
G1 X226.788 Y196.867 E16.84649
G1 X226.492 Y198.42 E16.89907
G1 X226.094 Y200.888 E16.98222
G1 X225.761 Y203.398 E17.06643
G1 X225.501 Y205.903 E17.1502
G1 X225.311 Y208.432 E17.23455
G1 X225.194 Y210.924 E17.31752
G1 X225.148 Y214.698 E17.44306
G1 X225.15 Y240.791 E18.31091
G1 X225.137 Y241.788 E18.34408
G1 X225.121 Y242.246 E18.35932
G1 X225.106 Y242.507 E18.36801
G1 X225.054 Y243.105 E18.38798
G1 X225.02 Y243.402 E18.39792
G1 X224.981 Y243.706 E18.40812
G1 X224.961 Y243.845 E18.41279
G1 X224.863 Y244.414 E18.43199
G1 X224.812 Y244.669 E18.44064
G1 X224.726 Y245.061 E18.45399
G1 X224.697 Y245.182 E18.45813
G1 X224.56 Y245.695 E18.47579
G1 X224.45 Y246.07 E18.48878
G1 X224.232 Y246.733 E18.512
G1 X224.125 Y247.025 E18.52234
G1 X223.912 Y247.561 E18.54152
G1 X223.842 Y247.724 E18.54742
G1 X223.594 Y248.26 E18.56707
G1 X223.421 Y248.608 E18.57999
G1 X223.271 Y248.899 E18.59088
G1 X222.918 Y249.518 E18.61458
G1 X222.784 Y249.736 E18.62309
G1 X222.549 Y250.103 E18.63759
G1 X222.183 Y250.63 E18.65893
G1 X221.859 Y251.064 E18.67694
G1 X221.784 Y251.161 E18.68102
G1 X221.316 Y251.724 E18.70537
G1 X221.13 Y251.933 E18.71468
G1 X220.84 Y252.248 E18.72892
G1 X220.409 Y252.682 E18.74926
G1 X220.188 Y252.892 E18.7594
G1 X219.704 Y253.324 E18.78098
G1 X219.454 Y253.534 E18.79184
G1 X218.996 Y253.898 E18.8113
G1 X218.828 Y254.024 E18.81828
G1 X218.336 Y254.372 E18.83832
G1 X218.005 Y254.592 E18.85154
G1 X217.579 Y254.861 E18.8683
G1 X217.162 Y255.102 E18.88432
G1 X216.943 Y255.222 E18.89263
G1 X216.671 Y255.366 E18.90286
G1 X216.532 Y255.437 E18.90805
G1 X215.912 Y255.728 E18.93083
G1 X215.604 Y255.861 E18.94199
G1 X215.066 Y256.076 E18.96126
G1 X214.762 Y256.188 E18.97204
G1 X214.154 Y256.392 E18.99337
G1 X213.968 Y256.448 E18.99983
G1 X213.376 Y256.608 E19.02022
G1 X212.92 Y256.717 E19.03582
G1 X212.002 Y256.894 E19.06691
G1 X211.751 Y256.931 E19.07535
G1 X211.287 Y256.99 E19.09091
G1 X210.664 Y257.047 E19.11172
G1 X210.351 Y257.066 E19.12215
G1 X210.045 Y257.08 E19.13233
G1 X209.635 Y257.093 E19.14598
G1 X209.299 Y257.098 E19.15715
G1 X147.007 Y257.099 E21.22899
G1 X146.163 Y257.087 E21.25707
G1 X145.71 Y257.071 E21.27215
G1 X145.447 Y257.056 E21.28091
G1 X144.845 Y257.004 E21.301
G1 X144.548 Y256.97 E21.31095
G1 X144.244 Y256.931 E21.32114
G1 X144.105 Y256.911 E21.32581
G1 X143.536 Y256.813 E21.34502
G1 X143.281 Y256.762 E21.35366
G1 X142.845 Y256.665 E21.36852
G1 X142.714 Y256.633 E21.37301
G1 X142.247 Y256.508 E21.38908
G1 X141.882 Y256.401 E21.40174
G1 X141.196 Y256.174 E21.42577
G1 X140.895 Y256.063 E21.43644
G1 X140.387 Y255.861 E21.45462
G1 X140.233 Y255.795 E21.46019
G1 X139.69 Y255.544 E21.48009
G1 X139.342 Y255.371 E21.49302
G1 X139.013 Y255.2 E21.50535
G1 X138.397 Y254.847 E21.52896
G1 X137.993 Y254.594 E21.54482
G1 X137.865 Y254.511 E21.54989
G1 X137.328 Y254.139 E21.57162
G1 X137.059 Y253.94 E21.58275
G1 X136.752 Y253.704 E21.59563
G1 X136.223 Y253.263 E21.61853
G1 X136.013 Y253.076 E21.62789
G1 X135.704 Y252.791 E21.64187
G1 X135.274 Y252.365 E21.662
G1 X135.056 Y252.136 E21.67252
G1 X134.609 Y251.636 E21.69482
G1 X134.407 Y251.395 E21.70528
G1 X134.027 Y250.914 E21.72567
G1 X133.902 Y250.746 E21.73263
G1 X133.578 Y250.286 E21.75135
G1 X133.358 Y249.955 E21.76457
G1 X133.11 Y249.564 E21.77997
G1 X132.822 Y249.066 E21.7991
G1 X132.708 Y248.856 E21.80705
G1 X132.512 Y248.479 E21.82118
G1 X132.212 Y247.841 E21.84463
G1 X132.072 Y247.515 E21.85643
G1 X131.858 Y246.977 E21.87569
G1 X131.754 Y246.693 E21.88575
G1 X131.558 Y246.104 E21.90639
G1 X131.502 Y245.918 E21.91285
G1 X131.342 Y245.326 E21.93325
G1 X131.233 Y244.87 E21.94885
G1 X131.053 Y243.932 E21.98061
G1 X131.013 Y243.657 E21.98986
G1 X130.959 Y243.23 E22.00417
G1 X130.903 Y242.614 E22.02474
G1 X130.884 Y242.301 E22.03517
G1 X130.87 Y241.995 E22.04536
G1 X130.857 Y241.585 E22.059
G1 X130.852 Y241.252 E22.07008
G1 X130.851 Y234.564 E22.29252
G1 X130.861 Y233.851 E22.31624
G1 X130.887 Y233.25 E22.33625
G1 X130.984 Y231.885 E22.38176
G1 X131.015 Y231.523 E22.39385
G1 X131.155 Y229.038 E22.47663
G1 X131.226 Y226.495 E22.56124
